BFlinkDesign/SignX/warehouse/raw/so_contract_outplant.csv
run_date,report_id,wo_number,work_dept,subcontractor,unit_of_measure,est_qty,actual_qty,variance_qty,est_cost,job_cost,cost_variance,description
02/15/2026,BRADYF_SO.CONTRACT_1000.1_21231_49815.158,1003.1,,3920384696 LAKEVILLE,0,0.0,0.0,0.0,0.0,0.0,223.64,Salad Creations
02/15/2026,BRADYF_SO.CONTRACT_1000.1_21231_49815.158,1003.1,,PO#1020-1 MCNEILL SI,EA,0.0,1.0,1.0,0.0,2098.84,2098.84,"Receive,inspect and install 20"" cha"
02/15/2026,BRADYF_SO.CONTRACT_1000.1_21231_49815.158,1003.1,,PO#1020-2 MCNEILL SI,EA,0.0,1.0,1.0,0.0,1375.93,1375.93,Time Clock Installation
02/15/2026,BRADYF_SO.CONTRACT_1000.1_21231_49815.158,1003.1,,PO#1020-3 MCNEILL SI,EA,0.0,0.0,0.0,0.0,0.0,0.0,Staff Time
02/15/2026,BRADYF_SO.CONTRACT_1000.1_21231_49815.158,1003.1,,PO#1020-4 MCNEILL SI,EA,0.0,0.0,0.0,0.0,0.0,0.0,Permits @ Cost
02/15/2026,BRADYF_SO.CONTRACT_1000.1_21231_49815.158,1003.1,,PO#1020-5 MCNEILL SI,EA,0.0,0.0,0.0,0.0,0.0,0.0,Engineering
02/15/2026,BRADYF_SO.CONTRACT_1000.1_21231_49815.158,1003.1,,PO#1577-1 NAGLE SIGN,EA,0.0,1.0,1.0,0.0,450.95,450.95,rout .04 white aluminum backs and 3
02/15/2026,BRADYF_SO.CONTRACT_1000.1_21231_49815.158,1005.1,,PO#1039-1 AIRPORT SI,EA,0.0,1.0,1.0,0.0,75.0,75.0,"Fabricate one banner 1'-0"" x 3'- 0"""
02/15/2026,BRADYF_SO.CONTRACT_1000.1_21231_49815.158,1007.1,,PO#1043-1 NAGLE SIGN,EA,0.0,1.0,1.0,0.0,1551.5,1551.5,"Remove ""Microtel Inn & Suites"" chan"
02/15/2026,BRADYF_SO.CONTRACT_1000.1_21231_49815.158,1007.1,0600,HARDWARE,EA,3.0,0.0,-3.0,30.0,0.0,-30.0,Misc
02/15/2026,BRADYF_SO.CONTRACT_1000.1_21231_49815.158,1009.2,,PO#1073-1 NAGLE SIGN,EA,0.0,1.0,1.0,0.0,3504.0,3504.0,Remove (3)
02/15/2026,BRADYF_SO.CONTRACT_1000.1_21231_49815.158,1009.4,,PO#1073-2 NAGLE SIGN,EA,0.0,1.0,1.0,0.0,0.0,0.0,Remove
02/15/2026,BRADYF_SO.CONTRACT_1000.1_21231_49815.158,1009.5,,PO#1073-3 NAGLE SIGN,EA,0.0,1.0,1.0,0.0,0.0,0.0,Install (1) set
02/15/2026,BRADYF_SO.CONTRACT_1000.1_21231_49815.158,1013.1,,PO#1218-1 FEDEX NATI,EA,0.0,1.0,1.0,0.0,285.88,285.88,freight out
02/15/2026,BRADYF_SO.CONTRACT_1000.1_21231_49815.158,1018.2,,PO#1067-1 NAGLE SIGN,EA,0.0,1.0,1.0,0.0,1327.0,1327.0,Remove (1) set
02/15/2026,BRADYF_SO.CONTRACT_1000.1_21231_49815.158,1018.4,,PO#1067-2 NAGLE SIGN,EA,0.0,1.0,1.0,0.0,0.0,0.0,Remove (2) 3'x8' First Realty
02/15/2026,BRADYF_SO.CONTRACT_1000.1_21231_49815.158,1018.5,,PO#1067-3 NAGLE SIGN,EA,0.0,1.0,1.0,0.0,0.0,0.0,"PLEASANT HILL, IA"
05/16/2024,BRADYF_SO.CONTRACT_10002_20591_41099.448,10002.1,,8412068 BTI LOGISTIC,0,0.0,0.0,0.0,0.0,0.0,2100.0,shipping for cat scale canopy to ka
05/16/2024,BRADYF_SO.CONTRACT_10002_20591_41099.448,10002.1,0200,10X10,FT,40.0,0.0,-40.0,1775.2,0.0,-1775.2,State Steel - 10 x 10 x 1/2 steel t
05/16/2024,BRADYF_SO.CONTRACT_10002_20591_41099.448,10002.1,0200,14GA,EA,4.0,0.0,-4.0,288.0,0.0,-288.0,State Steel - 14ga x 48 x 120
05/16/2024,BRADYF_SO.CONTRACT_10002_20591_41099.448,10002.1,0200,2998T53,EA,2.0,0.0,-2.0,40.0,0.0,-40.0,McMaster-Carr - 2998T53 turn buckle
05/16/2024,BRADYF_SO.CONTRACT_10002_20591_41099.448,10002.1,0200,3372T25KIT,EA,4.0,0.0,-4.0,40.0,0.0,-40.0,McMaster-Carr - 3372T25 kit
05/16/2024,BRADYF_SO.CONTRACT_10002_20591_41099.448,10002.1,0200,BOX,EA,1.0,0.0,-1.0,11.0,0.0,-11.0,GRY 2-GNG QP BOX 1/2 & 3
05/16/2024,BRADYF_SO.CONTRACT_10002_20591_41099.448,10002.1,0200,CABLE,FT,60.0,0.0,-60.0,123.0,0.0,-123.0,Galvanized cable
05/16/2024,BRADYF_SO.CONTRACT_10002_20591_41099.448,10002.1,0200,CHANNEL,EA,40.0,0.0,-40.0,358.8,0.0,-358.8,4x13.8
05/16/2024,BRADYF_SO.CONTRACT_10002_20591_41099.448,10002.1,0200,COVER,EA,1.0,0.0,-1.0,3.5,0.0,-3.5,GRY 2-GNG WP BLNK CVR
05/16/2024,BRADYF_SO.CONTRACT_10002_20591_41099.448,10002.1,0200,FLAT,EA,1.0,0.0,-1.0,58.64,0.0,-58.64,State Steel - 3/8 x 5 flat
05/16/2024,BRADYF_SO.CONTRACT_10002_20591_41099.448,10002.1,0200,KITS,EA,4.0,0.0,-4.0,40.0,0.0,-40.0,#3372T25
05/16/2024,BRADYF_SO.CONTRACT_10002_20591_41099.448,10002.1,0200,NETTING,EA,1.0,0.0,-1.0,25.0,0.0,-25.0,4´ x 50´ Poultry Netting
05/16/2024,BRADYF_SO.CONTRACT_10002_20591_41099.448,10002.1,0200,W12X16,FT,20.0,0.0,-20.0,208.0,0.0,-208.0,State Steel - W12x16 beam
05/16/2024,BRADYF_SO.CONTRACT_10002_20591_41099.448,10002.1,0300,LIGHTS,EA,6.0,0.0,-6.0,1944.0,0.0,-1944.0,Adventure Lighting - 75W LED Canopy
05/16/2024,BRADYF_SO.CONTRACT_10002_20591_41099.448,10002.1,0300,POWER,EA,14.0,0.0,-14.0,721.28,0.0,-721.28,concorde 100 watt
05/16/2024,BRADYF_SO.CONTRACT_10002_20591_41099.448,10002.2,,PO#19268-1 RODERICK,EA,0.0,1.0,1.0,0.0,4000.0,4000.0,-INSTALL CATSCALE CANOPY.
05/16/2024,BRADYF_SO.CONTRACT_10002_20591_41099.448,10002.2,0600,INSTALLATION,EA,1.0,0.0,-1.0,4000.0,0.0,-4000.0,Roderick Sign Co. - installation
05/16/2024,BRADYF_SO.CONTRACT_10002_20591_41314.84,10002.1,,8412068 BTI LOGISTIC,0,0.0,0.0,0.0,0.0,0.0,2100.0,shipping for cat scale canopy to ka
05/16/2024,BRADYF_SO.CONTRACT_10002_20591_41314.84,10002.1,0200,10X10,FT,40.0,0.0,-40.0,1775.2,0.0,-1775.2,State Steel - 10 x 10 x 1/2 steel t
05/16/2024,BRADYF_SO.CONTRACT_10002_20591_41314.84,10002.1,0200,14GA,EA,4.0,0.0,-4.0,288.0,0.0,-288.0,State Steel - 14ga x 48 x 120
05/16/2024,BRADYF_SO.CONTRACT_10002_20591_41314.84,10002.1,0200,2998T53,EA,2.0,0.0,-2.0,40.0,0.0,-40.0,McMaster-Carr - 2998T53 turn buckle
05/16/2024,BRADYF_SO.CONTRACT_10002_20591_41314.84,10002.1,0200,3372T25KIT,EA,4.0,0.0,-4.0,40.0,0.0,-40.0,McMaster-Carr - 3372T25 kit
05/16/2024,BRADYF_SO.CONTRACT_10002_20591_41314.84,10002.1,0200,BOX,EA,1.0,0.0,-1.0,11.0,0.0,-11.0,GRY 2-GNG QP BOX 1/2 & 3
05/16/2024,BRADYF_SO.CONTRACT_10002_20591_41314.84,10002.1,0200,CABLE,FT,60.0,0.0,-60.0,123.0,0.0,-123.0,Galvanized cable
05/16/2024,BRADYF_SO.CONTRACT_10002_20591_41314.84,10002.1,0200,CHANNEL,EA,40.0,0.0,-40.0,358.8,0.0,-358.8,4x13.8
05/16/2024,BRADYF_SO.CONTRACT_10002_20591_41314.84,10002.1,0200,COVER,EA,1.0,0.0,-1.0,3.5,0.0,-3.5,GRY 2-GNG WP BLNK CVR
05/16/2024,BRADYF_SO.CONTRACT_10002_20591_41314.84,10002.1,0200,FLAT,EA,1.0,0.0,-1.0,58.64,0.0,-58.64,State Steel - 3/8 x 5 flat
05/16/2024,BRADYF_SO.CONTRACT_10002_20591_41314.84,10002.1,0200,KITS,EA,4.0,0.0,-4.0,40.0,0.0,-40.0,#3372T25
05/16/2024,BRADYF_SO.CONTRACT_10002_20591_41314.84,10002.1,0200,NETTING,EA,1.0,0.0,-1.0,25.0,0.0,-25.0,4´ x 50´ Poultry Netting
05/16/2024,BRADYF_SO.CONTRACT_10002_20591_41314.84,10002.1,0200,W12X16,FT,20.0,0.0,-20.0,208.0,0.0,-208.0,State Steel - W12x16 beam
05/16/2024,BRADYF_SO.CONTRACT_10002_20591_41314.84,10002.1,0300,LIGHTS,EA,6.0,0.0,-6.0,1944.0,0.0,-1944.0,Adventure Lighting - 75W LED Canopy
05/16/2024,BRADYF_SO.CONTRACT_10002_20591_41314.84,10002.1,0300,POWER,EA,14.0,0.0,-14.0,721.28,0.0,-721.28,concorde 100 watt
05/16/2024,BRADYF_SO.CONTRACT_10002_20591_41314.84,10002.2,,PO#19268-1 RODERICK,EA,0.0,1.0,1.0,0.0,4000.0,4000.0,-INSTALL CATSCALE CANOPY.
05/16/2024,BRADYF_SO.CONTRACT_10002_20591_41314.84,10002.2,0600,INSTALLATION,EA,1.0,0.0,-1.0,4000.0,0.0,-4000.0,Roderick Sign Co. - installation
05/16/2024,BRADYF_SO.CONTRACT_10002_20591_41449.509,10002.1,,8412068 BTI LOGISTIC,0,0.0,0.0,0.0,0.0,0.0,2100.0,shipping for cat scale canopy to ka
05/16/2024,BRADYF_SO.CONTRACT_10002_20591_41449.509,10002.1,0200,10X10,FT,40.0,0.0,-40.0,1775.2,0.0,-1775.2,State Steel - 10 x 10 x 1/2 steel t
05/16/2024,BRADYF_SO.CONTRACT_10002_20591_41449.509,10002.1,0200,14GA,EA,4.0,0.0,-4.0,288.0,0.0,-288.0,State Steel - 14ga x 48 x 120
05/16/2024,BRADYF_SO.CONTRACT_10002_20591_41449.509,10002.1,0200,2998T53,EA,2.0,0.0,-2.0,40.0,0.0,-40.0,McMaster-Carr - 2998T53 turn buckle
05/16/2024,BRADYF_SO.CONTRACT_10002_20591_41449.509,10002.1,0200,3372T25KIT,EA,4.0,0.0,-4.0,40.0,0.0,-40.0,McMaster-Carr - 3372T25 kit
05/16/2024,BRADYF_SO.CONTRACT_10002_20591_41449.509,10002.1,0200,BOX,EA,1.0,0.0,-1.0,11.0,0.0,-11.0,GRY 2-GNG QP BOX 1/2 & 3
05/16/2024,BRADYF_SO.CONTRACT_10002_20591_41449.509,10002.1,0200,CABLE,FT,60.0,0.0,-60.0,123.0,0.0,-123.0,Galvanized cable
05/16/2024,BRADYF_SO.CONTRACT_10002_20591_41449.509,10002.1,0200,CHANNEL,EA,40.0,0.0,-40.0,358.8,0.0,-358.8,4x13.8
05/16/2024,BRADYF_SO.CONTRACT_10002_20591_41449.509,10002.1,0200,COVER,EA,1.0,0.0,-1.0,3.5,0.0,-3.5,GRY 2-GNG WP BLNK CVR
05/16/2024,BRADYF_SO.CONTRACT_10002_20591_41449.509,10002.1,0200,FLAT,EA,1.0,0.0,-1.0,58.64,0.0,-58.64,State Steel - 3/8 x 5 flat
05/16/2024,BRADYF_SO.CONTRACT_10002_20591_41449.509,10002.1,0200,KITS,EA,4.0,0.0,-4.0,40.0,0.0,-40.0,#3372T25
05/16/2024,BRADYF_SO.CONTRACT_10002_20591_41449.509,10002.1,0200,NETTING,EA,1.0,0.0,-1.0,25.0,0.0,-25.0,4´ x 50´ Poultry Netting
05/16/2024,BRADYF_SO.CONTRACT_10002_20591_41449.509,10002.1,0200,W12X16,FT,20.0,0.0,-20.0,208.0,0.0,-208.0,State Steel - W12x16 beam
05/16/2024,BRADYF_SO.CONTRACT_10002_20591_41449.509,10002.1,0300,LIGHTS,EA,6.0,0.0,-6.0,1944.0,0.0,-1944.0,Adventure Lighting - 75W LED Canopy
05/16/2024,BRADYF_SO.CONTRACT_10002_20591_41449.509,10002.1,0300,POWER,EA,14.0,0.0,-14.0,721.28,0.0,-721.28,concorde 100 watt
05/16/2024,BRADYF_SO.CONTRACT_10002_20591_41449.509,10002.2,,PO#19268-1 RODERICK,EA,0.0,1.0,1.0,0.0,4000.0,4000.0,-INSTALL CATSCALE CANOPY.
05/16/2024,BRADYF_SO.CONTRACT_10002_20591_41449.509,10002.2,0600,INSTALLATION,EA,1.0,0.0,-1.0,4000.0,0.0,-4000.0,Roderick Sign Co. - installation
05/16/2024,BRADYF_SO.CONTRACT_10002_20591_41457.864,10002.1,,8412068 BTI LOGISTIC,0,0.0,0.0,0.0,0.0,0.0,2100.0,shipping for cat scale canopy to ka
05/16/2024,BRADYF_SO.CONTRACT_10002_20591_41457.864,10002.1,0200,10X10,FT,40.0,0.0,-40.0,1775.2,0.0,-1775.2,State Steel - 10 x 10 x 1/2 steel t
05/16/2024,BRADYF_SO.CONTRACT_10002_20591_41457.864,10002.1,0200,14GA,EA,4.0,0.0,-4.0,288.0,0.0,-288.0,State Steel - 14ga x 48 x 120
05/16/2024,BRADYF_SO.CONTRACT_10002_20591_41457.864,10002.1,0200,2998T53,EA,2.0,0.0,-2.0,40.0,0.0,-40.0,McMaster-Carr - 2998T53 turn buckle
05/16/2024,BRADYF_SO.CONTRACT_10002_20591_41457.864,10002.1,0200,3372T25KIT,EA,4.0,0.0,-4.0,40.0,0.0,-40.0,McMaster-Carr - 3372T25 kit
05/16/2024,BRADYF_SO.CONTRACT_10002_20591_41457.864,10002.1,0200,BOX,EA,1.0,0.0,-1.0,11.0,0.0,-11.0,GRY 2-GNG QP BOX 1/2 & 3
05/16/2024,BRADYF_SO.CONTRACT_10002_20591_41457.864,10002.1,0200,CABLE,FT,60.0,0.0,-60.0,123.0,0.0,-123.0,Galvanized cable
05/16/2024,BRADYF_SO.CONTRACT_10002_20591_41457.864,10002.1,0200,CHANNEL,EA,40.0,0.0,-40.0,358.8,0.0,-358.8,4x13.8
05/16/2024,BRADYF_SO.CONTRACT_10002_20591_41457.864,10002.1,0200,COVER,EA,1.0,0.0,-1.0,3.5,0.0,-3.5,GRY 2-GNG WP BLNK CVR
05/16/2024,BRADYF_SO.CONTRACT_10002_20591_41457.864,10002.1,0200,FLAT,EA,1.0,0.0,-1.0,58.64,0.0,-58.64,State Steel - 3/8 x 5 flat
05/16/2024,BRADYF_SO.CONTRACT_10002_20591_41457.864,10002.1,0200,KITS,EA,4.0,0.0,-4.0,40.0,0.0,-40.0,#3372T25
05/16/2024,BRADYF_SO.CONTRACT_10002_20591_41457.864,10002.1,0200,NETTING,EA,1.0,0.0,-1.0,25.0,0.0,-25.0,4´ x 50´ Poultry Netting
05/16/2024,BRADYF_SO.CONTRACT_10002_20591_41457.864,10002.1,0200,W12X16,FT,20.0,0.0,-20.0,208.0,0.0,-208.0,State Steel - W12x16 beam
05/16/2024,BRADYF_SO.CONTRACT_10002_20591_41457.864,10002.1,0300,LIGHTS,EA,6.0,0.0,-6.0,1944.0,0.0,-1944.0,Adventure Lighting - 75W LED Canopy
05/16/2024,BRADYF_SO.CONTRACT_10002_20591_41457.864,10002.1,0300,POWER,EA,14.0,0.0,-14.0,721.28,0.0,-721.28,concorde 100 watt
05/16/2024,BRADYF_SO.CONTRACT_10002_20591_41457.864,10002.2,,PO#19268-1 RODERICK,EA,0.0,1.0,1.0,0.0,4000.0,4000.0,-INSTALL CATSCALE CANOPY.
05/16/2024,BRADYF_SO.CONTRACT_10002_20591_41457.864,10002.2,0600,INSTALLATION,EA,1.0,0.0,-1.0,4000.0,0.0,-4000.0,Roderick Sign Co. - installation
05/16/2024,BRADYF_SO.CONTRACT_10002_20591_74320.269,10002.1,,8412068 BTI LOGISTIC,0,0.0,0.0,0.0,0.0,0.0,2100.0,shipping for cat scale canopy to ka
05/16/2024,BRADYF_SO.CONTRACT_10002_20591_74320.269,10002.1,0200,10X10,FT,40.0,0.0,-40.0,1775.2,0.0,-1775.2,State Steel - 10 x 10 x 1/2 steel t
05/16/2024,BRADYF_SO.CONTRACT_10002_20591_74320.269,10002.1,0200,14GA,EA,4.0,0.0,-4.0,288.0,0.0,-288.0,State Steel - 14ga x 48 x 120
05/16/2024,BRADYF_SO.CONTRACT_10002_20591_74320.269,10002.1,0200,2998T53,EA,2.0,0.0,-2.0,40.0,0.0,-40.0,McMaster-Carr - 2998T53 turn buckle
05/16/2024,BRADYF_SO.CONTRACT_10002_20591_74320.269,10002.1,0200,3372T25KIT,EA,4.0,0.0,-4.0,40.0,0.0,-40.0,McMaster-Carr - 3372T25 kit
05/16/2024,BRADYF_SO.CONTRACT_10002_20591_74320.269,10002.1,0200,BOX,EA,1.0,0.0,-1.0,11.0,0.0,-11.0,GRY 2-GNG QP BOX 1/2 & 3
05/16/2024,BRADYF_SO.CONTRACT_10002_20591_74320.269,10002.1,0200,CABLE,FT,60.0,0.0,-60.0,123.0,0.0,-123.0,Galvanized cable
05/16/2024,BRADYF_SO.CONTRACT_10002_20591_74320.269,10002.1,0200,CHANNEL,EA,40.0,0.0,-40.0,358.8,0.0,-358.8,4x13.8
05/16/2024,BRADYF_SO.CONTRACT_10002_20591_74320.269,10002.1,0200,COVER,EA,1.0,0.0,-1.0,3.5,0.0,-3.5,GRY 2-GNG WP BLNK CVR
05/16/2024,BRADYF_SO.CONTRACT_10002_20591_74320.269,10002.1,0200,FLAT,EA,1.0,0.0,-1.0,58.64,0.0,-58.64,State Steel - 3/8 x 5 flat
05/16/2024,BRADYF_SO.CONTRACT_10002_20591_74320.269,10002.1,0200,KITS,EA,4.0,0.0,-4.0,40.0,0.0,-40.0,#3372T25
05/16/2024,BRADYF_SO.CONTRACT_10002_20591_74320.269,10002.1,0200,NETTING,EA,1.0,0.0,-1.0,25.0,0.0,-25.0,4´ x 50´ Poultry Netting
05/16/2024,BRADYF_SO.CONTRACT_10002_20591_74320.269,10002.1,0200,W12X16,FT,20.0,0.0,-20.0,208.0,0.0,-208.0,State Steel - W12x16 beam
05/16/2024,BRADYF_SO.CONTRACT_10002_20591_74320.269,10002.1,0300,LIGHTS,EA,6.0,0.0,-6.0,1944.0,0.0,-1944.0,Adventure Lighting - 75W LED Canopy
05/16/2024,BRADYF_SO.CONTRACT_10002_20591_74320.269,10002.1,0300,POWER,EA,14.0,0.0,-14.0,721.28,0.0,-721.28,concorde 100 watt
05/16/2024,BRADYF_SO.CONTRACT_10002_20591_74320.269,10002.2,,PO#19268-1 RODERICK,EA,0.0,1.0,1.0,0.0,4000.0,4000.0,-INSTALL CATSCALE CANOPY.
05/16/2024,BRADYF_SO.CONTRACT_10002_20591_74320.269,10002.2,0600,INSTALLATION,EA,1.0,0.0,-1.0,4000.0,0.0,-4000.0,Roderick Sign Co. - installation
05/17/2024,BRADYF_SO.CONTRACT_10002_20592_39494.45,10002.1,,8412068 BTI LOGISTIC,0,0.0,0.0,0.0,0.0,0.0,2100.0,shipping for cat scale canopy to ka
05/17/2024,BRADYF_SO.CONTRACT_10002_20592_39494.45,10002.1,0200,10X10,FT,40.0,0.0,-40.0,1775.2,0.0,-1775.2,State Steel - 10 x 10 x 1/2 steel t
05/17/2024,BRADYF_SO.CONTRACT_10002_20592_39494.45,10002.1,0200,14GA,EA,4.0,0.0,-4.0,288.0,0.0,-288.0,State Steel - 14ga x 48 x 120
05/17/2024,BRADYF_SO.CONTRACT_10002_20592_39494.45,10002.1,0200,2998T53,EA,2.0,0.0,-2.0,40.0,0.0,-40.0,McMaster-Carr - 2998T53 turn buckle
05/17/2024,BRADYF_SO.CONTRACT_10002_20592_39494.45,10002.1,0200,3372T25KIT,EA,4.0,0.0,-4.0,40.0,0.0,-40.0,McMaster-Carr - 3372T25 kit
05/17/2024,BRADYF_SO.CONTRACT_10002_20592_39494.45,10002.1,0200,BOX,EA,1.0,0.0,-1.0,11.0,0.0,-11.0,GRY 2-GNG QP BOX 1/2 & 3
05/17/2024,BRADYF_SO.CONTRACT_10002_20592_39494.45,10002.1,0200,CABLE,FT,60.0,0.0,-60.0,123.0,0.0,-123.0,Galvanized cable
05/17/2024,BRADYF_SO.CONTRACT_10002_20592_39494.45,10002.1,0200,CHANNEL,EA,40.0,0.0,-40.0,358.8,0.0,-358.8,4x13.8
05/17/2024,BRADYF_SO.CONTRACT_10002_20592_39494.45,10002.1,0200,COVER,EA,1.0,0.0,-1.0,3.5,0.0,-3.5,GRY 2-GNG WP BLNK CVR
05/17/2024,BRADYF_SO.CONTRACT_10002_20592_39494.45,10002.1,0200,FLAT,EA,1.0,0.0,-1.0,58.64,0.0,-58.64,State Steel - 3/8 x 5 flat
05/17/2024,BRADYF_SO.CONTRACT_10002_20592_39494.45,10002.1,0200,KITS,EA,4.0,0.0,-4.0,40.0,0.0,-40.0,#3372T25
05/17/2024,BRADYF_SO.CONTRACT_10002_20592_39494.45,10002.1,0200,NETTING,EA,1.0,0.0,-1.0,25.0,0.0,-25.0,4´ x 50´ Poultry Netting
05/17/2024,BRADYF_SO.CONTRACT_10002_20592_39494.45,10002.1,0200,W12X16,FT,20.0,0.0,-20.0,208.0,0.0,-208.0,State Steel - W12x16 beam
05/17/2024,BRADYF_SO.CONTRACT_10002_20592_39494.45,10002.1,0300,LIGHTS,EA,6.0,0.0,-6.0,1944.0,0.0,-1944.0,Adventure Lighting - 75W LED Canopy
05/17/2024,BRADYF_SO.CONTRACT_10002_20592_39494.45,10002.1,0300,POWER,EA,14.0,0.0,-14.0,721.28,0.0,-721.28,concorde 100 watt
05/17/2024,BRADYF_SO.CONTRACT_10002_20592_39494.45,10002.2,,PO#19268-1 RODERICK,EA,0.0,1.0,1.0,0.0,4000.0,4000.0,-INSTALL CATSCALE CANOPY.
05/17/2024,BRADYF_SO.CONTRACT_10002_20592_39494.45,10002.2,0600,INSTALLATION,EA,1.0,0.0,-1.0,4000.0,0.0,-4000.0,Roderick Sign Co. - installation
05/24/2024,BRADYF_SO.CONTRACT_10002_20599_49809.125,10002.1,,8412068 BTI LOGISTIC,0,0.0,0.0,0.0,0.0,0.0,2100.0,shipping for cat scale canopy to ka
05/24/2024,BRADYF_SO.CONTRACT_10002_20599_49809.125,10002.1,0200,10X10,FT,40.0,0.0,-40.0,1775.2,0.0,-1775.2,State Steel - 10 x 10 x 1/2 steel t
05/24/2024,BRADYF_SO.CONTRACT_10002_20599_49809.125,10002.1,0200,14GA,EA,4.0,0.0,-4.0,288.0,0.0,-288.0,State Steel - 14ga x 48 x 120
05/24/2024,BRADYF_SO.CONTRACT_10002_20599_49809.125,10002.1,0200,2998T53,EA,2.0,0.0,-2.0,40.0,0.0,-40.0,McMaster-Carr - 2998T53 turn buckle
05/24/2024,BRADYF_SO.CONTRACT_10002_20599_49809.125,10002.1,0200,3372T25KIT,EA,4.0,0.0,-4.0,40.0,0.0,-40.0,McMaster-Carr - 3372T25 kit
05/24/2024,BRADYF_SO.CONTRACT_10002_20599_49809.125,10002.1,0200,BOX,EA,1.0,0.0,-1.0,11.0,0.0,-11.0,GRY 2-GNG QP BOX 1/2 & 3
05/24/2024,BRADYF_SO.CONTRACT_10002_20599_49809.125,10002.1,0200,CABLE,FT,60.0,0.0,-60.0,123.0,0.0,-123.0,Galvanized cable
05/24/2024,BRADYF_SO.CONTRACT_10002_20599_49809.125,10002.1,0200,CHANNEL,EA,40.0,0.0,-40.0,358.8,0.0,-358.8,4x13.8
05/24/2024,BRADYF_SO.CONTRACT_10002_20599_49809.125,10002.1,0200,COVER,EA,1.0,0.0,-1.0,3.5,0.0,-3.5,GRY 2-GNG WP BLNK CVR
05/24/2024,BRADYF_SO.CONTRACT_10002_20599_49809.125,10002.1,0200,FLAT,EA,1.0,0.0,-1.0,58.64,0.0,-58.64,State Steel - 3/8 x 5 flat
05/24/2024,BRADYF_SO.CONTRACT_10002_20599_49809.125,10002.1,0200,KITS,EA,4.0,0.0,-4.0,40.0,0.0,-40.0,#3372T25
05/24/2024,BRADYF_SO.CONTRACT_10002_20599_49809.125,10002.1,0200,NETTING,EA,1.0,0.0,-1.0,25.0,0.0,-25.0,4´ x 50´ Poultry Netting
05/24/2024,BRADYF_SO.CONTRACT_10002_20599_49809.125,10002.1,0200,W12X16,FT,20.0,0.0,-20.0,208.0,0.0,-208.0,State Steel - W12x16 beam
05/24/2024,BRADYF_SO.CONTRACT_10002_20599_49809.125,10002.1,0300,LIGHTS,EA,6.0,0.0,-6.0,1944.0,0.0,-1944.0,Adventure Lighting - 75W LED Canopy
05/24/2024,BRADYF_SO.CONTRACT_10002_20599_49809.125,10002.1,0300,POWER,EA,14.0,0.0,-14.0,721.28,0.0,-721.28,concorde 100 watt
05/24/2024,BRADYF_SO.CONTRACT_10002_20599_49809.125,10002.2,,PO#19268-1 RODERICK,EA,0.0,1.0,1.0,0.0,4000.0,4000.0,-INSTALL CATSCALE CANOPY.
05/24/2024,BRADYF_SO.CONTRACT_10002_20599_49809.125,10002.2,0600,INSTALLATION,EA,1.0,0.0,-1.0,4000.0,0.0,-4000.0,Roderick Sign Co. - installation
10/09/2025,BRADYF_SO.CONTRACT_10031.1_21102_58370.912,10031.1,,PO#19717-1 CARDMEMBE,EA,0.0,6.0,6.0,0.0,22.98,22.98,Quickrete
10/09/2025,BRADYF_SO.CONTRACT_10031.1_21102_58370.912,10031.1,0500,OVERLAMINATE,SF,35.0,0.0,-35.0,35.0,0.0,-35.0,Overlaminate
10/03/2025,BRADYF_SO.CONTRACT_10031_21096_45861.246,10031.1,,PO#19717-1 CARDMEMBE,EA,0.0,6.0,6.0,0.0,22.98,22.98,Quickrete
10/03/2025,BRADYF_SO.CONTRACT_10031_21096_45861.246,10031.1,0500,OVERLAMINATE,SF,35.0,0.0,-35.0,35.0,0.0,-35.0,Overlaminate
10/03/2025,BRADYF_SO.CONTRACT_10031_21096_45861.246,10031.2,,PO#19717-2 CARDMEMBE,EA,0.0,6.0,6.0,0.0,22.99,22.99,Quikrete
10/03/2025,BRADYF_SO.CONTRACT_10031_21096_45861.246,10031.2,0500,OVERLAMINATE,SF,35.0,0.0,-35.0,35.0,0.0,-35.0,Overlaminate
07/05/2025,BRADYF_SO.CONTRACT_10042.2_21006_4435.806,10042.2,,PO#19400-1 NAGLE SIG,EA,0.0,1.0,1.0,0.0,212.5,212.5,Bend letter returns for EXEMPLACARE
07/05/2025,BRADYF_SO.CONTRACT_10042.2_21006_4435.806,10042.2,,PO#19458-1 CONTRACTO,EA,0.0,1.0,1.0,0.0,1401.93,1401.93,PROVIDE 85´ JLG LIFT FOR EAGLE SIGN
07/05/2025,BRADYF_SO.CONTRACT_10042.2_21006_4435.806,10042.2,0300,POWER,EA,2.0,0.0,-2.0,180.0,0.0,-180.0,France Double pack 60 watt with SW
07/05/2025,BRADYF_SO.CONTRACT_10042.2_21006_4435.806,10042.2,0600,TEMPLATE,EA,24.0,0.0,-24.0,61.2,0.0,-61.2,Mounting Pattern
01/29/2026,BRADYF_SO.CONTRACT_10090.5_21214_84899.787,10091.3,0500,OVERLAMINATE,SF,1.0,0.0,-1.0,1.0,0.0,-1.0,Overlaminate
01/29/2026,BRADYF_SO.CONTRACT_10090.5_21214_84899.787,10098.1,,PO#19512-1 UNISHIPPE,EA,0.0,1.0,1.0,0.0,126.2,126.2,shipping for cat scale.
01/29/2026,BRADYF_SO.CONTRACT_10090.5_21214_84899.787,10101.1,,PO#19511-1 BTI LOGIS,EA,0.0,1.0,1.0,0.0,1900.0,1900.0,shipping for cat scale.
01/29/2026,BRADYF_SO.CONTRACT_10090.5_21214_84899.787,10103.1,,PO#19612-1 BTI LOGIS,EA,0.0,1.0,1.0,0.0,2650.0,2650.0,shipping for cat scale.
01/29/2026,BRADYF_SO.CONTRACT_10090.5_21214_84899.787,10105.1,0200,LUMBER,EA,20.0,0.0,-20.0,1569.6,0.0,-1569.6,"Beisser - 6"" x 6"" x 12´"
01/29/2026,BRADYF_SO.CONTRACT_10090.5_21214_84899.787,10106.1,0200,48839,EA,1.0,0.0,-1.0,12.0,0.0,-12.0,watchfire - AC Cable
01/29/2026,BRADYF_SO.CONTRACT_10090.5_21214_84899.787,10106.1,0200,50954,EA,1.0,0.0,-1.0,15.0,0.0,-15.0,watchfire - 4.5´ Ethernet Jumper (M
01/29/2026,BRADYF_SO.CONTRACT_10090.5_21214_84899.787,10106.1,0200,950377,EA,1.0,0.0,-1.0,795.0,0.0,-795.0,watchfire - LCBBW 4G Modem Kit w/ A
01/29/2026,BRADYF_SO.CONTRACT_10090.5_21214_84899.787,10106.1,0200,DATA,EA,1.0,0.0,-1.0,595.0,0.0,-595.0,watchfire - 5 Year Data Plan
01/29/2026,BRADYF_SO.CONTRACT_10090.5_21214_84899.787,10106.1,0200,E950383,EA,1.0,0.0,-1.0,2195.0,0.0,-2195.0,"watchfire - Controller, BC-860"
01/29/2026,BRADYF_SO.CONTRACT_10090.5_21214_84899.787,10108.1,0600,OVERNIGHT,EA,2.0,0.0,-2.0,200.0,0.0,-200.0,"Food, lodging"
01/29/2026,BRADYF_SO.CONTRACT_10090.5_21214_84899.787,10116.1,0200,ACM,EA,4.0,0.0,-4.0,363.96,0.0,-363.96,Grimco - 3mm MaxMetal 5x10
01/29/2026,BRADYF_SO.CONTRACT_10090.5_21214_84899.787,10116.1,0200,METALMAX,EA,4.0,0.0,-4.0,256.0,0.0,-256.0,"3mm 4"" X 8´"
01/29/2026,BRADYF_SO.CONTRACT_10090.5_21214_84899.787,10116.1,0500,OVERLAMINATE,SF,364.0,0.0,-364.0,364.0,0.0,-364.0,overlaminate
01/29/2026,BRADYF_SO.CONTRACT_10090.5_21214_84899.787,10117.2,0200,EMC,EA,1.0,0.0,-1.0,12663.0,0.0,-12663.0,Daktronics - quote #737035-1-0
01/29/2026,BRADYF_SO.CONTRACT_10090.5_21214_84899.787,10117.4,0200,EMC,EA,1.0,0.0,-1.0,21149.0,0.0,-21149.0,Daktronics - quote #737035-1-0
01/29/2026,BRADYF_SO.CONTRACT_10090.5_21214_84899.787,10118.1,,PO#19561-1 UNISHIPPE,EA,0.0,1.0,1.0,0.0,881.4,881.4,shipping for cat scale.
01/29/2026,BRADYF_SO.CONTRACT_10090.5_21214_84899.787,10121.1,0200,FACES,EA,2.0,0.0,-2.0,598.4,0.0,-598.4,Commercial Plastics - email quote
01/29/2026,BRADYF_SO.CONTRACT_10090.5_21214_84899.787,10121.1,0200,FREIGHT,EA,1.0,0.0,-1.0,116.64,0.0,-116.64,Commercial Plastics - freight
01/29/2026,BRADYF_SO.CONTRACT_10090.5_21214_84899.787,10122.1,,PO#19701-1 DIVISION,EA,0.0,1.0,1.0,0.0,1010.0,1010.0,"REMOVE 6"" THICK CONCRETE FOR NEW BA"
01/29/2026,BRADYF_SO.CONTRACT_10090.5_21214_84899.787,10122.1,0600,D3,EA,1.0,0.0,-1.0,1010.0,0.0,-1010.0,D3 - quote #2021051
01/29/2026,BRADYF_SO.CONTRACT_10090.5_21214_84899.787,10124.1,,PO#19589-1 UNISHIPPE,EA,0.0,1.0,1.0,0.0,379.55,379.55,shipping for cat scale.
01/29/2026,BRADYF_SO.CONTRACT_10090.5_21214_84899.787,10129.1,,PO#19673-1 BTI LOGIS,EA,0.0,1.0,1.0,0.0,2650.0,2650.0,shipping for cat scale.
01/29/2026,BRADYF_SO.CONTRACT_10090.5_21214_84899.787,1013.1,,PO#1218-1 FEDEX NATI,EA,0.0,1.0,1.0,0.0,285.88,285.88,freight out
01/29/2026,BRADYF_SO.CONTRACT_10090.5_21214_84899.787,10130.1,,PO#19608-1 UNISHIPPE,EA,0.0,1.0,1.0,0.0,839.61,839.61,shipping for cat scale.
01/29/2026,BRADYF_SO.CONTRACT_10090.5_21214_84899.787,10131.1,0200,GEMINI,EA,1.0,0.0,-1.0,1381.34,0.0,-1381.34,Gemini - quote #5666484
01/29/2026,BRADYF_SO.CONTRACT_10090.5_21214_84899.787,10131.1,0400,POWDERCOAT,EA,1.0,0.0,-1.0,385.0,0.0,-385.0,Performance Powder Coat - email quo
01/29/2026,BRADYF_SO.CONTRACT_10090.5_21214_84899.787,10131.2,0200,PANEL,EA,1.0,0.0,-1.0,529.0,0.0,-529.0,Fossil - quote #F92280
01/29/2026,BRADYF_SO.CONTRACT_10090.5_21214_84899.787,10131.2,0400,PAINT,EA,1.0,0.0,-1.0,226.0,0.0,-226.0,Tony Moro - powder coating
01/29/2026,BRADYF_SO.CONTRACT_10090.5_21214_84899.787,10131.2,0600,TEMPLATE,EA,1.0,0.0,-1.0,75.0,0.0,-75.0,mounting
01/29/2026,BRADYF_SO.CONTRACT_10090.5_21214_84899.787,10131.6,0200,PANEL,EA,2.0,0.0,-2.0,1058.0,0.0,-1058.0,Fossil - quote #F92280
01/29/2026,BRADYF_SO.CONTRACT_10090.5_21214_84899.787,10131.6,0400,PAINT,EA,2.0,0.0,-2.0,452.0,0.0,-452.0,Tony Moro - powder coating
01/29/2026,BRADYF_SO.CONTRACT_10090.5_21214_84899.787,10131.6,0600,ANCHOR,EA,12.0,0.0,-12.0,120.0,0.0,-120.0,"1/2"" anchor"
01/29/2026,BRADYF_SO.CONTRACT_10090.5_21214_84899.787,10131.7,0200,GEMINI,EA,1.0,0.0,-1.0,1381.34,0.0,-1381.34,Gemini - quote #5666484
01/29/2026,BRADYF_SO.CONTRACT_10090.5_21214_84899.787,10131.7,0400,POWDERCOAT,EA,1.0,0.0,-1.0,385.0,0.0,-385.0,Performance Powder Coat - email quo
01/29/2026,BRADYF_SO.CONTRACT_10090.5_21214_84899.787,10135.1,,PO#19616-1 UNISHIPPE,EA,0.0,1.0,1.0,0.0,127.43,127.43,shipping for cat scale.
01/29/2026,BRADYF_SO.CONTRACT_10090.5_21214_84899.787,10136.1,0300,LEDS,EA,15.0,0.0,-15.0,328.05,0.0,-328.05,Grimco - HanleyLED PhoenixNRG Bar -
01/29/2026,BRADYF_SO.CONTRACT_10090.5_21214_84899.787,10136.1,0500,OVERLAMINATE,SF,23.0,0.0,-23.0,34.5,0.0,-34.5,Overlaminate
01/29/2026,BRADYF_SO.CONTRACT_10090.5_21214_84899.787,10136.1,0600,LAMP,EA,15.0,0.0,-15.0,15.0,0.0,-15.0,Lamp disposal
01/29/2026,BRADYF_SO.CONTRACT_10090.5_21214_84899.787,10137.2,0600,RENT,EA,3.0,0.0,-3.0,150.0,0.0,-150.0,lift
01/29/2026,BRADYF_SO.CONTRACT_10090.5_21214_84899.787,10137.3,0600,RENT,EA,1.0,0.0,-1.0,50.0,0.0,-50.0,lift
01/29/2026,BRADYF_SO.CONTRACT_10090.5_21214_84899.787,10137.4,0600,RENT,EA,2.0,0.0,-2.0,100.0,0.0,-100.0,lift
01/29/2026,BRADYF_SO.CONTRACT_10090.5_21214_84899.787,10137.5,0600,LIFT,EA,1.0,0.0,-1.0,50.0,0.0,-50.0,rental
01/29/2026,BRADYF_SO.CONTRACT_10090.5_21214_84899.787,10137.6,0600,LIFT,EA,1.0,0.0,-1.0,50.0,0.0,-50.0,rent
01/29/2026,BRADYF_SO.CONTRACT_10090.5_21214_84899.787,10137.7,0600,LIFT,EA,1.0,0.0,-1.0,50.0,0.0,-50.0,rent
01/29/2026,BRADYF_SO.CONTRACT_10090.5_21214_84899.787,10138.1,,PO#19603-1 BTI LOGIS,EA,0.0,1.0,1.0,0.0,2850.0,2850.0,shipping for cat scale.
01/29/2026,BRADYF_SO.CONTRACT_10090.5_21214_84899.787,10147.3,0200,GEMINI,EA,1.0,0.0,-1.0,765.53,0.0,-765.53,Gemini - quote #E361958
01/29/2026,BRADYF_SO.CONTRACT_10090.5_21214_84899.787,10148.2,0200,GEMINI,EA,1.0,0.0,-1.0,273.09,0.0,-273.09,Gemini - quote #5677571
01/29/2026,BRADYF_SO.CONTRACT_10090.5_21214_84899.787,10148.3,0200,GEMINI,EA,1.0,0.0,-1.0,886.07,0.0,-886.07,Gemini - quote #5677570
01/29/2026,BRADYF_SO.CONTRACT_10090.5_21214_84899.787,10148.4,0600,PAINT,EA,1.0,0.0,-1.0,2961.0,0.0,-2961.0,Heartland finishes - email quote
01/29/2026,BRADYF_SO.CONTRACT_10090.5_21214_84899.787,10151.1,0600,DIRT,BG,8.0,0.0,-8.0,40.0,0.0,-40.0,Menards - lawn soil
01/29/2026,BRADYF_SO.CONTRACT_10090.5_21214_84899.787,10152.3,,PO#21360-1 COUNTRY S,EA,0.0,1.0,1.0,0.0,4810.0,4810.0,"Furnish 24"" brick base. Price per e"
01/29/2026,BRADYF_SO.CONTRACT_10090.5_21214_84899.787,10152.3,,PO#21362-1 DIVISION,EA,0.0,1.0,1.0,0.0,2470.0,2470.0,DIG FOOTING FOR MONUMENT SIGN PER Q
01/29/2026,BRADYF_SO.CONTRACT_10090.5_21214_84899.787,10152.3,0500,OVERLAMINATE,SF,50.0,0.0,-50.0,55.0,0.0,-55.0,Overlaminate
01/29/2026,BRADYF_SO.CONTRACT_10090.5_21214_84899.787,10152.3,0600,FOOTINGS,EA,1.0,0.0,-1.0,2470.0,0.0,-2470.0,D3 - quote #2022074
01/29/2026,BRADYF_SO.CONTRACT_10090.5_21214_84899.787,10152.3,0600,MASONRY,EA,1.0,0.0,-1.0,4810.0,0.0,-4810.0,Country Landscapes - quote
01/29/2026,BRADYF_SO.CONTRACT_10090.5_21214_84899.787,10154.1,0200,MODULES,EA,3.0,0.0,-3.0,1425.0,0.0,-1425.0,Watchfire - part #E912000h2
01/29/2026,BRADYF_SO.CONTRACT_10090.5_21214_84899.787,10154.1,0200,SHIPPING,EA,2.0,0.0,-2.0,228.8,0.0,-228.8,Ground shipping
01/29/2026,BRADYF_SO.CONTRACT_10090.5_21214_84899.787,10156.2,0600,PATTERN,EA,1.0,0.0,-1.0,42.46,0.0,-42.46,mounting
01/29/2026,BRADYF_SO.CONTRACT_10090.5_21214_84899.787,10156.6,0200,FREIGHT,EA,1.0,0.0,-1.0,27.0,0.0,-27.0,UPS Ground
01/29/2026,BRADYF_SO.CONTRACT_10090.5_21214_84899.787,10156.6,0200,GEMINI,EA,1.0,0.0,-1.0,227.77,0.0,-227.77,Gemini - quote #E404597 (1)
01/29/2026,BRADYF_SO.CONTRACT_10090.5_21214_84899.787,10156.7,0600,TEMPLATE,EA,4.0,0.0,-4.0,10.2,0.0,-10.2,Mounting Pattern
01/29/2026,BRADYF_SO.CONTRACT_10090.5_21214_84899.787,10157.1,0600,TEMPLATE,EA,17.0,0.0,-17.0,43.35,0.0,-43.35,Mounting Pattern
01/29/2026,BRADYF_SO.CONTRACT_10090.5_21214_84899.787,10160.3,0200,EMC,EA,1.0,0.0,-1.0,56258.76,0.0,-56258.76,watchfire - quote #1818306.7 (rev 7
01/29/2026,BRADYF_SO.CONTRACT_10090.5_21214_84899.787,10160.4,0300,150W,EA,1.0,0.0,-1.0,64.39,0.0,-64.39,Grimco - HanleyLED 24 Volt Premium
01/29/2026,BRADYF_SO.CONTRACT_10090.5_21214_84899.787,10160.4,0300,240W,EA,2.0,0.0,-2.0,334.78,0.0,-334.78,Grimco - HanleyLED 24 Volt Premium
01/29/2026,BRADYF_SO.CONTRACT_10090.5_21214_84899.787,10160.4,0300,BRACKET,BG,10.0,0.0,-10.0,34.1,0.0,-34.1,Grimco - HanleyLED PhoenixNRG Bar M
01/29/2026,BRADYF_SO.CONTRACT_10090.5_21214_84899.787,10160.4,0300,LEDS,EA,10.0,0.0,-10.0,680.4,0.0,-680.4,Grimco - HanleyLED PhoenixNRG Bar -
01/29/2026,BRADYF_SO.CONTRACT_10090.5_21214_84899.787,10160.4,0600,DISPOSAL,EA,18.0,0.0,-18.0,18.0,0.0,-18.0,Lamp disposal
01/29/2026,BRADYF_SO.CONTRACT_10090.5_21214_84899.787,10165.1,,PO#19691-1 UNISHIPPE,EA,0.0,1.0,1.0,0.0,134.0,134.0,shipping for cat scale.
01/29/2026,BRADYF_SO.CONTRACT_10090.5_21214_84899.787,10167.1,,PO#19696-1 BTI LOGIS,EA,0.0,1.0,1.0,0.0,2850.0,2850.0,shipping for cat scale.
01/29/2026,BRADYF_SO.CONTRACT_10090.5_21214_84899.787,10168.2,0200,EMC,EA,1.0,0.0,-1.0,21149.0,0.0,-21149.0,Daktronics - quote #737784-3-0
01/29/2026,BRADYF_SO.CONTRACT_10090.5_21214_84899.787,10168.3,0500,OVERLAMINATE,SET,32.0,0.0,-32.0,48.0,0.0,-48.0,Overlaminate
01/29/2026,BRADYF_SO.CONTRACT_10090.5_21214_84899.787,10169.1,0200,EMC,EA,1.0,0.0,-1.0,12866.6,0.0,-12866.6,watchfire - quote #2105313.0
01/29/2026,BRADYF_SO.CONTRACT_10090.5_21214_84899.787,10170.1,,PO#19731-1 BTI LOGIS,EA,0.0,1.0,1.0,0.0,2650.0,2650.0,shipping for cat scale.
01/29/2026,BRADYF_SO.CONTRACT_10090.5_21214_84899.787,10171.1,0200,FACES,EA,2.0,0.0,-2.0,504.9,0.0,-504.9,Commercial Plastics - email quote
01/29/2026,BRADYF_SO.CONTRACT_10090.5_21214_84899.787,10171.1,0200,FREIGHT,EA,1.0,0.0,-1.0,141.69,0.0,-141.69,Commercial Plastics - freight
01/29/2026,BRADYF_SO.CONTRACT_10090.5_21214_84899.787,10171.1,0500,OVERLAMINATE1,SF,50.0,0.0,-50.0,50.0,0.0,-50.0,Opaque
01/29/2026,BRADYF_SO.CONTRACT_10090.5_21214_84899.787,10171.1,0500,OVERLAMINATE2,SF,25.0,0.0,-25.0,37.5,0.0,-37.5,Clear
01/29/2026,BRADYF_SO.CONTRACT_10090.5_21214_84899.787,10171.2,0300,LEDS,EA,3.0,0.0,-3.0,163.29,0.0,-163.29,Grimco - HanleyLED PhoenixNRG Bar -
01/29/2026,BRADYF_SO.CONTRACT_10090.5_21214_84899.787,10171.2,0600,DISPOSAL,EA,3.0,0.0,-3.0,3.0,0.0,-3.0,Lamp disposal
01/29/2026,BRADYF_SO.CONTRACT_10090.5_21214_84899.787,10172.1,0200,LETTERS,EA,1.0,0.0,-1.0,215.06,0.0,-215.06,Gemini - quote #E340354
01/29/2026,BRADYF_SO.CONTRACT_10090.5_21214_84899.787,10172.1,0200,TEMPLATE,EA,44.0,0.0,-44.0,110.0,0.0,-110.0,drill for letters
01/29/2026,BRADYF_SO.CONTRACT_10090.5_21214_84899.787,10173.1,0600,LODGING,EA,2.0,0.0,-2.0,200.0,0.0,-200.0,overnight
01/29/2026,BRADYF_SO.CONTRACT_10090.5_21214_84899.787,10173.1,0600,NAGLE,EA,8.0,0.0,-8.0,800.0,0.0,-800.0,Auger
01/29/2026,BRADYF_SO.CONTRACT_10090.5_21214_84899.787,10173.1,0600,SPOILS,EA,1.0,0.0,-1.0,200.0,0.0,-200.0,Dirt removal
01/29/2026,BRADYF_SO.CONTRACT_10090.5_21214_84899.787,1018.2,,PO#1067-1 NAGLE SIGN,EA,0.0,1.0,1.0,0.0,1327.0,1327.0,Remove (1) set
01/29/2026,BRADYF_SO.CONTRACT_10090.5_21214_84899.787,1018.4,,PO#1067-2 NAGLE SIGN,EA,0.0,1.0,1.0,0.0,0.0,0.0,Remove (2) 3'x8' First Realty
01/29/2026,BRADYF_SO.CONTRACT_10090.5_21214_84899.787,1018.5,,PO#1067-3 NAGLE SIGN,EA,0.0,1.0,1.0,0.0,0.0,0.0,"PLEASANT HILL, IA"
01/29/2026,BRADYF_SO.CONTRACT_10090.5_21214_84899.787,10182.1,0500,OVERLAMINATE,SF,2.0,0.0,-2.0,2.0,0.0,-2.0,Overlaminate
01/29/2026,BRADYF_SO.CONTRACT_10090.5_21214_84899.787,10182.2,0500,OVERLAMINATE,SF,7.0,0.0,-7.0,7.0,0.0,-7.0,Overlaminate
01/29/2026,BRADYF_SO.CONTRACT_10090.5_21214_84899.787,10183.1,0500,OVERLAMINATE,SF,3.0,0.0,-3.0,4.5,0.0,-4.5,Overlaminate
01/29/2026,BRADYF_SO.CONTRACT_10090.5_21214_84899.787,10183.2,0500,OVERLAMINATE,SF,3.0,0.0,-3.0,4.5,0.0,-4.5,Overlaminate
01/29/2026,BRADYF_SO.CONTRACT_10090.5_21214_84899.787,10183.3,0500,OVERLAMINATE,SF,16.0,0.0,-16.0,24.0,0.0,-24.0,Overlaminate
01/29/2026,BRADYF_SO.CONTRACT_10090.5_21214_84899.787,10185.1,0500,OVERLAMINATE,SF,28.0,0.0,-28.0,28.0,0.0,-28.0,Overlaminate
01/29/2026,BRADYF_SO.CONTRACT_10090.5_21214_84899.787,10185.2,0500,OVERLAMINATE,SF,3.0,0.0,-3.0,4.5,0.0,-4.5,Overlaminate
01/29/2026,BRADYF_SO.CONTRACT_10090.5_21214_84899.787,10186.1,0500,OVERLAMINATE,SF,6.0,0.0,-6.0,6.0,0.0,-6.0,Overlaminate
01/29/2026,BRADYF_SO.CONTRACT_10090.5_21214_84899.787,10186.2,0500,OVERLAMINATE,SF,6.0,0.0,-6.0,6.0,0.0,-6.0,Overlaminate
01/29/2026,BRADYF_SO.CONTRACT_10090.5_21214_84899.787,10186.3,0500,OVERLAMINATE,SF,2.0,0.0,-2.0,2.0,0.0,-2.0,Overlaminate
01/29/2026,BRADYF_SO.CONTRACT_10090.5_21214_84899.787,10189.1,0200,FACES,EA,2.0,0.0,-2.0,748.0,0.0,-748.0,Commercial Plastics - email quote
01/29/2026,BRADYF_SO.CONTRACT_10090.5_21214_84899.787,10189.1,0200,FREIGHT,EA,1.0,0.0,-1.0,120.0,0.0,-120.0,Commercial Plastics - email quote
01/29/2026,BRADYF_SO.CONTRACT_10090.5_21214_84899.787,10189.1,0500,OVERLAMINATE,SF,81.0,0.0,-81.0,81.0,0.0,-81.0,Overlaminate
01/29/2026,BRADYF_SO.CONTRACT_10090.5_21214_84899.787,10191.1,0200,GEMINI,EA,1.0,0.0,-1.0,1890.22,0.0,-1890.22,Gemini - quote #5706653
01/29/2026,BRADYF_SO.CONTRACT_10090.5_21214_84899.787,10192.1,0200,FACES,EA,1.0,0.0,-1.0,767.4,0.0,-767.4,Commercial Plastics - email quote
01/29/2026,BRADYF_SO.CONTRACT_10090.5_21214_84899.787,10192.1,0200,SHIPPING,EA,1.0,0.0,-1.0,114.72,0.0,-114.72,Commercial Plastics - freight
01/29/2026,BRADYF_SO.CONTRACT_10090.5_21214_84899.787,10192.1,0500,OVERLAMINATE,SF,82.0,0.0,-82.0,82.0,0.0,-82.0,Overlaminate
01/29/2026,BRADYF_SO.CONTRACT_10090.5_21214_84899.787,10195.1,,PO#19706-1 SUPERIOR,EA,0.0,1.0,1.0,0.0,0.0,0.0,"Receive and install one letter ""S"""
01/29/2026,BRADYF_SO.CONTRACT_10090.5_21214_84899.787,10197.1,0200,FABRIC,LYD,4.0,0.0,-4.0,77.92,0.0,-77.92,Fabric - Sunbrella® Awning / Marine
01/29/2026,BRADYF_SO.CONTRACT_10090.5_21214_84899.787,10198.1,0200,FABRIC,LYD,4.0,0.0,-4.0,77.92,0.0,-77.92,Fabric - Sunbrella® Awning / Marine
01/29/2026,BRADYF_SO.CONTRACT_10090.5_21214_84899.787,10199.1,0200,FABRIC,LYD,4.0,0.0,-4.0,77.92,0.0,-77.92,Fabric - Sunbrella® Awning / Marine
01/29/2026,BRADYF_SO.CONTRACT_10090.5_21214_84899.787,1020.2,,07252007 CITY OF PEL,0,0.0,0.0,0.0,0.0,0.0,15.0,Maid-Rite Permit Fee
02/15/2026,BRADYF_SO.CONTRACT_1019.5_21231_49829.683,1020.2,,07252007 CITY OF PEL,0,0.0,0.0,0.0,0.0,0.0,15.0,Maid-Rite Permit Fee
06/04/2025,BRADYF_SO.CONTRACT_10249_20975_42304.169,10249.1,0500,OVERLAMINATE,SF,41.0,0.0,-41.0,41.0,0.0,-41.0,Overlaminate
06/04/2025,BRADYF_SO.CONTRACT_10249_20975_42304.169,10249.3,0500,OVERLAMINATE,SF,4.0,0.0,-4.0,4.0,0.0,-4.0,overlaminate
06/07/2024,BRADYF_SO.CONTRACT_10290.1_20613_73939.287,10290.1,0500,OVERLAMINATE,SF,24.0,0.0,-24.0,24.0,0.0,-24.0,overlaminate
01/29/2026,BRADYF_SO.CONTRACT_10295.2_21214_84930.019,1030.2,,PO#1207-2 CARDMEMBER,EA,0.0,1.0,1.0,0.0,150.0,150.0,permits
01/29/2026,BRADYF_SO.CONTRACT_10295.2_21214_84930.019,10300.1,0600,DISPOSAL,EA,10.0,0.0,-10.0,10.0,0.0,-10.0,Lamp disposal
01/29/2026,BRADYF_SO.CONTRACT_10295.2_21214_84930.019,10301.9,0500,SCARLET,SF,10.0,0.0,-10.0,25.8,0.0,-25.8,3630-163 Scarlet Red
01/29/2026,BRADYF_SO.CONTRACT_10295.2_21214_84930.019,10303.3,,PO#20138-1 BTI LOGIS,EA,0.0,1.0,1.0,0.0,2900.0,2900.0,shipping for cat scale.
01/29/2026,BRADYF_SO.CONTRACT_10295.2_21214_84930.019,10306.1,0200,GEMINI,EA,4.0,0.0,-4.0,96.0,0.0,-96.0,"Gemini - 6""H flat face formed plast"
01/29/2026,BRADYF_SO.CONTRACT_10295.2_21214_84930.019,10306.1,0200,PATTERN,EA,1.0,0.0,-1.0,16.65,0.0,-16.65,Gemini - 1-5 characters
01/29/2026,BRADYF_SO.CONTRACT_10295.2_21214_84930.019,10308.1,0200,FREIGHT,EA,1.0,0.0,-1.0,250.0,0.0,-250.0,Estimated Steel Art freight
01/29/2026,BRADYF_SO.CONTRACT_10295.2_21214_84930.019,10308.1,0200,LETTERS,EA,1.0,0.0,-1.0,2269.0,0.0,-2269.0,Steel Art - quote #205639
01/29/2026,BRADYF_SO.CONTRACT_10295.2_21214_84930.019,1031.1,,PO#1050-1 NAGLE SIGN,EA,0.0,1.0,1.0,0.0,650.0,650.0,"Receive, inspect and install one se"
01/29/2026,BRADYF_SO.CONTRACT_10295.2_21214_84930.019,10310.1,0500,VINYL,EA,3.0,0.0,-3.0,296.61,0.0,-296.61,"NGlantz - 24"" X 10Y 3M 7725 59 PUTT"
01/29/2026,BRADYF_SO.CONTRACT_10295.2_21214_84930.019,10310.2,0600,DISPOSAL,EA,8.0,0.0,-8.0,8.0,0.0,-8.0,Lamp disposal
01/29/2026,BRADYF_SO.CONTRACT_10295.2_21214_84930.019,10312.1,,PO#19969-1 WORLDWIDE,EA,0.0,1.0,1.0,0.0,4243.0,4243.0,shipping for cat scale.
01/29/2026,BRADYF_SO.CONTRACT_10295.2_21214_84930.019,10313.1,,PO#19985-1 BTI LOGIS,EA,0.0,1.0,1.0,0.0,1600.0,1600.0,shipping for cat scale.
01/29/2026,BRADYF_SO.CONTRACT_10295.2_21214_84930.019,10315.1,0200,GEMINI,EA,1.0,0.0,-1.0,376.59,0.0,-376.59,Gemini - quote #E429092
01/29/2026,BRADYF_SO.CONTRACT_10295.2_21214_84930.019,10319.3,5300,PERMIT,EA,1.0,0.0,-1.0,137.5,0.0,-137.5,Permit fee
01/29/2026,BRADYF_SO.CONTRACT_10295.2_21214_84930.019,10319.4,,PO#20277-1 CONTRACTO,EA,0.0,1.0,1.0,0.0,759.5,759.5,PROVIDE 85´JLG LIFT ON SITE PER INS
01/29/2026,BRADYF_SO.CONTRACT_10295.2_21214_84930.019,10319.4,0200,LETTERS,EA,1.0,0.0,-1.0,2451.0,0.0,-2451.0,Steel Art - quote #207668
01/29/2026,BRADYF_SO.CONTRACT_10295.2_21214_84930.019,10319.4,0200,SHIPPING,EA,1.0,0.0,-1.0,200.0,0.0,-200.0,estimated Steel Art shipping
01/29/2026,BRADYF_SO.CONTRACT_10295.2_21214_84930.019,10319.4,0600,LIFT,EA,1.0,0.0,-1.0,720.0,0.0,-720.0,Duke Aerial - 85´ JLG
01/29/2026,BRADYF_SO.CONTRACT_10295.2_21214_84930.019,10320.1,0600,CRANE,EA,12.0,0.0,-12.0,1800.0,0.0,-1800.0,Crane Rental Nagle Auger
01/29/2026,BRADYF_SO.CONTRACT_10295.2_21214_84930.019,10322.1,,PO#20004-1 BTI LOGIS,EA,0.0,1.0,1.0,0.0,1950.0,1950.0,shipping for cat scale.
01/29/2026,BRADYF_SO.CONTRACT_10295.2_21214_84930.019,10323.1,0500,PREP,EA,1.0,0.0,-1.0,42.46,0.0,-42.46,LABOR - clean/prep vehicle
01/29/2026,BRADYF_SO.CONTRACT_10295.2_21214_84930.019,10327.1,0200,ROPE,EA,1.0,0.0,-1.0,96.19,0.0,-96.19,Home Depot - 1-1/2 in. x 50 ft. Man
01/29/2026,BRADYF_SO.CONTRACT_10295.2_21214_84930.019,10327.2,0500,OVERLAMINATE,SF,18.0,0.0,-18.0,27.0,0.0,-27.0,Overlaminate
01/29/2026,BRADYF_SO.CONTRACT_10295.2_21214_84930.019,10330.1,0500,502-0190-48,SF,48.0,0.0,-48.0,192.0,0.0,-192.0,"48"" dual color white perf"
01/29/2026,BRADYF_SO.CONTRACT_10295.2_21214_84930.019,10330.1,0500,502-0410-36,SF,48.0,0.0,-48.0,96.0,0.0,-96.0,Overlaminate
01/29/2026,BRADYF_SO.CONTRACT_10295.2_21214_84930.019,10330.1,0600,SEAL,LF,40.0,0.0,-40.0,4.0,0.0,-4.0,"1´2"" edge tape"
01/29/2026,BRADYF_SO.CONTRACT_10295.2_21214_84930.019,10336.3,0300,NGLANTZ,EA,1.0,0.0,-1.0,1668.57,0.0,-1668.57,NGlantz - 6/28/21 email quote
01/29/2026,BRADYF_SO.CONTRACT_10295.2_21214_84930.019,1034.10,,3920400274 LAKEVILLE,0,0.0,0.0,0.0,0.0,0.0,204.66,Freight
01/29/2026,BRADYF_SO.CONTRACT_10295.2_21214_84930.019,10341.4,,PO#20228-1 CONTRACTO,EA,0.0,1.0,1.0,0.0,82.39,82.39,Light adapto
01/29/2026,BRADYF_SO.CONTRACT_10295.2_21214_84930.019,10343.1,0200,FACES,EA,2.0,0.0,-2.0,1182.0,0.0,-1182.0,Commercial Plastics - email quote (
01/29/2026,BRADYF_SO.CONTRACT_10295.2_21214_84930.019,10343.1,0200,FREIGHT,EA,1.0,0.0,-1.0,150.0,0.0,-150.0,Commercial Plastics - freight
01/29/2026,BRADYF_SO.CONTRACT_10295.2_21214_84930.019,10343.1,0200,PATTERN,EA,1.0,0.0,-1.0,50.0,0.0,-50.0,Commercial Plastics - email quote (
01/29/2026,BRADYF_SO.CONTRACT_10295.2_21214_84930.019,10349.1,0200,GEMINI,EA,1.0,0.0,-1.0,1422.45,0.0,-1422.45,Gemini - quote #E435409
01/29/2026,BRADYF_SO.CONTRACT_10295.2_21214_84930.019,10349.2,0200,GEMINI,EA,1.0,0.0,-1.0,249.89,0.0,-249.89,Gemini - quote #E438877
01/29/2026,BRADYF_SO.CONTRACT_10295.2_21214_84930.019,1035.8,,PO#1240-1 ANNETT HOL,EA,0.0,1.0,1.0,0.0,1649.7,1649.7,Prepaid Shipping to Meridian MS
01/29/2026,BRADYF_SO.CONTRACT_10295.2_21214_84930.019,10350.1,,PO#20051-1 ADAMS FRE,EA,0.0,1.0,1.0,0.0,2850.0,2850.0,shipping for cat scale
01/29/2026,BRADYF_SO.CONTRACT_10295.2_21214_84930.019,10351.1,,PO#20084-1 UNISHIPPE,EA,0.0,1.0,1.0,0.0,69.94,69.94,shipping for cat scale
01/29/2026,BRADYF_SO.CONTRACT_10295.2_21214_84930.019,10352.1,,PO#20033-1 UNISHIPPE,EA,0.0,1.0,1.0,0.0,1062.99,1062.99,shipping for cat scale.
01/29/2026,BRADYF_SO.CONTRACT_10295.2_21214_84930.019,10353.1,0200,BLANK,EA,2.0,0.0,-2.0,30.68,0.0,-30.68,Grimco - .080 Painted Aluminum Sign
01/29/2026,BRADYF_SO.CONTRACT_10295.2_21214_84930.019,10353.1,0500,OVERLAMINATE,SF,6.0,0.0,-6.0,6.0,0.0,-6.0,Overlaminate
01/29/2026,BRADYF_SO.CONTRACT_10295.2_21214_84930.019,10357.1,0600,LAMP,EA,6.0,0.0,-6.0,6.0,0.0,-6.0,disposal
01/29/2026,BRADYF_SO.CONTRACT_10295.2_21214_84930.019,10357.2,0600,ANCHORS,EA,4.0,0.0,-4.0,48.0,0.0,-48.0,hilti stainless
01/29/2026,BRADYF_SO.CONTRACT_10295.2_21214_84930.019,10358.1,0500,OVERLAMINATE,SF,4.0,0.0,-4.0,4.0,0.0,-4.0,Overlaminate
01/29/2026,BRADYF_SO.CONTRACT_10295.2_21214_84930.019,10361.1,,1018594170 UNISHIPPE,0,0.0,0.0,0.0,0.0,0.0,139.89,shipping for Kemin to Indiana
01/29/2026,BRADYF_SO.CONTRACT_10295.2_21214_84930.019,10361.1,0200,SHIPPING,EA,1.0,0.0,-1.0,300.0,0.0,-300.0,estimated shipping to IN
01/29/2026,BRADYF_SO.CONTRACT_10295.2_21214_84930.019,10361.1,0500,OVERLAMINATE,SF,18.0,0.0,-18.0,27.0,0.0,-27.0,Overlaminate
01/29/2026,BRADYF_SO.CONTRACT_10295.2_21214_84930.019,10362.2,0600,TEMPLATE,EA,12.0,0.0,-12.0,30.6,0.0,-30.6,Mounting Pattern
01/29/2026,BRADYF_SO.CONTRACT_10295.2_21214_84930.019,10363.1,,PO#20050-1 UNISHIPPE,EA,0.0,1.0,1.0,0.0,134.44,134.44,shipping for cat scale.
01/29/2026,BRADYF_SO.CONTRACT_10295.2_21214_84930.019,10364.1,0200,FREIGHT,EA,1.0,0.0,-1.0,45.0,0.0,-45.0,UPS Ground freight
01/29/2026,BRADYF_SO.CONTRACT_10295.2_21214_84930.019,10364.1,0200,GEMINI,EA,1.0,0.0,-1.0,454.37,0.0,-454.37,Gemini - quote #E424322
01/29/2026,BRADYF_SO.CONTRACT_10295.2_21214_84930.019,10365.1,0600,TEMPLATE,EA,4.0,0.0,-4.0,10.2,0.0,-10.2,Mounting Pattern
01/29/2026,BRADYF_SO.CONTRACT_10295.2_21214_84930.019,10365.2,0500,ANTIQUE,SF,3.0,0.0,-3.0,3.72,0.0,-3.72,3m Antique White 7725-90
01/29/2026,BRADYF_SO.CONTRACT_10295.2_21214_84930.019,10368.1,0200,FABRIC,LYD,4.0,0.0,-4.0,100.0,0.0,-100.0,TriVantage - Sunbrella® Awning / Ma
01/29/2026,BRADYF_SO.CONTRACT_10295.2_21214_84930.019,10370.1,0200,BANNER,SF,48.0,0.0,-48.0,72.0,0.0,-72.0,Signs365.com - 4x6 15oz banner
01/29/2026,BRADYF_SO.CONTRACT_10295.2_21214_84930.019,10370.1,0200,SHIPPING,EA,2.0,0.0,-2.0,20.0,0.0,-20.0,Signs365 estimated shipping
01/29/2026,BRADYF_SO.CONTRACT_10295.2_21214_84930.019,10371.2,0300,LEDS,EA,8.0,0.0,-8.0,217.76,0.0,-217.76,Grimco - HanleyLED PhoenixNRG Bar -
01/29/2026,BRADYF_SO.CONTRACT_10295.2_21214_84930.019,10371.2,0600,DISPOSAL,EA,8.0,0.0,-8.0,8.0,0.0,-8.0,Lamp disposal
01/29/2026,BRADYF_SO.CONTRACT_10295.2_21214_84930.019,10371.3,0500,OVERLAMINATE,SF,40.0,0.0,-40.0,60.0,0.0,-60.0,Overlaminate
01/29/2026,BRADYF_SO.CONTRACT_10295.2_21214_84930.019,10372.1,0200,ACRYLIC,SF,8.0,0.0,-8.0,149.0,0.0,-149.0,"SABIC - 1"" clear acrylic"
01/29/2026,BRADYF_SO.CONTRACT_10295.2_21214_84930.019,10372.1,0200,SHIPPING,EA,1.0,0.0,-1.0,100.0,0.0,-100.0,estimated SABIC shipping
01/29/2026,BRADYF_SO.CONTRACT_10295.2_21214_84930.019,10373.1,0200,TEMPLATE,EA,17.0,0.0,-17.0,43.35,0.0,-43.35,Mounting Pattern
01/29/2026,BRADYF_SO.CONTRACT_10295.2_21214_84930.019,10374.1,0200,FREIGHT,EA,1.0,0.0,-1.0,40.0,0.0,-40.0,UPS Ground
01/29/2026,BRADYF_SO.CONTRACT_10295.2_21214_84930.019,10374.1,0200,GEMINI,EA,1.0,0.0,-1.0,725.81,0.0,-725.81,Gemini - quote #E410058
01/29/2026,BRADYF_SO.CONTRACT_10295.2_21214_84930.019,10374.2,0600,PATTERN,EA,1.0,0.0,-1.0,30.0,0.0,-30.0,Mounting
01/29/2026,BRADYF_SO.CONTRACT_10295.2_21214_84930.019,10374.5,0600,PATTERN,EA,1.0,0.0,-1.0,30.0,0.0,-30.0,Mounting
02/15/2026,BRADYF_SO.CONTRACT_1030.1_21231_49843.777,1030.2,,PO#1207-2 CARDMEMBER,EA,0.0,1.0,1.0,0.0,150.0,150.0,permits
02/15/2026,BRADYF_SO.CONTRACT_1030.1_21231_49843.777,1031.1,,PO#1050-1 NAGLE SIGN,EA,0.0,1.0,1.0,0.0,650.0,650.0,"Receive, inspect and install one se"
02/15/2026,BRADYF_SO.CONTRACT_1030.1_21231_49843.777,1034.10,,3920400274 LAKEVILLE,0,0.0,0.0,0.0,0.0,0.0,204.66,Freight
02/15/2026,BRADYF_SO.CONTRACT_1030.1_21231_49843.777,1035.8,,PO#1240-1 ANNETT HOL,EA,0.0,1.0,1.0,0.0,1649.7,1649.7,Prepaid Shipping to Meridian MS
04/18/2025,BRADYF_SO.CONTRACT_10323.1_20928_52887.543,10323.1,0500,PREP,EA,1.0,0.0,-1.0,42.46,0.0,-42.46,LABOR - clean/prep vehicle
04/18/2025,BRADYF_SO.CONTRACT_10323_20928_53603.402,10323.1,0500,PREP,EA,1.0,0.0,-1.0,42.46,0.0,-42.46,LABOR - clean/prep vehicle
11/20/2025,BRADYF_SO.CONTRACT_10368_21144_49474.007,10368.1,0200,FABRIC,LYD,4.0,0.0,-4.0,100.0,0.0,-100.0,TriVantage - Sunbrella® Awning / Ma
02/15/2026,BRADYF_SO.CONTRACT_1038.4_21231_49858.895,1039.4,,prepaid freight to M,0,0.0,0.0,0.0,0.0,0.0,1649.7,prepaid freight to Meridian MS
02/15/2026,BRADYF_SO.CONTRACT_1038.4_21231_49858.895,1040.2,,PO#1207-1 CARDMEMBER,EA,0.0,1.0,1.0,0.0,218.0,218.0,permits
02/15/2026,BRADYF_SO.CONTRACT_1038.4_21231_49858.895,1040.2,0600,HARDWARE,EA,1.0,0.0,-1.0,40.0,0.0,-40.0,parts
02/15/2026,BRADYF_SO.CONTRACT_1038.4_21231_49858.895,1040.3,,PO#1267-1 AIRPORT SI,EA,0.0,1.0,1.0,0.0,150.0,150.0,"4´ x 6´ banner reading ""Capital San"
02/15/2026,BRADYF_SO.CONTRACT_1038.4_21231_49858.895,1054.1,,Transfer from 1225.2,0,0.0,0.0,0.0,0.0,0.0,395.78,Transfer from 1225.2
02/15/2026,BRADYF_SO.CONTRACT_1038.4_21231_49858.895,1061.1,0300,HARDWARE,EA,1.0,0.0,-1.0,30.0,0.0,-30.0,parts
02/15/2026,BRADYF_SO.CONTRACT_1038.4_21231_49858.895,1066.1,,PO 1162 GEMINI INC.,0,0.0,0.0,0.0,0.0,0.0,749.71,CHECK 2853
02/15/2026,BRADYF_SO.CONTRACT_1038.4_21231_49858.895,1066.2,0600,HARDWARE,EA,1.0,0.0,-1.0,50.0,0.0,-50.0,parts
02/15/2026,BRADYF_SO.CONTRACT_1038.4_21231_49858.895,1066.3,,PO#1194-1 AMERICAN M,EA,0.0,1.0,1.0,0.0,1270.0,1270.0,"(25) 8"" x 8"" A.D.A. room i.d. signs"
03/27/2025,BRADYF_SO.CONTRACT_10556_20906_42691.421,10556.1,0500,OVERLAMINATE,SF,4.0,0.0,-4.0,4.0,0.0,-4.0,Overlaminate
03/27/2025,BRADYF_SO.CONTRACT_10556_20906_42691.421,10556.2,0200,GEMINI,EA,1.0,0.0,-1.0,743.93,0.0,-743.93,Gemini - quote #5949601
03/25/2025,BRADYF_SO.CONTRACT_10575_20904_52500.651,10575.1,,PO#21496-1 COX DESIG,EA,0.0,4.0,4.0,0.0,7967.84,7967.84,Provide: (2) 4x4 Decorative Metal P
03/25/2025,BRADYF_SO.CONTRACT_10575_20904_52500.651,10575.1,,PO#21849-1 CARDMEMBE,EA,0.0,1.0,1.0,0.0,103.24,103.24,SUGAR CREEK
03/25/2025,BRADYF_SO.CONTRACT_10575_20904_52500.651,10575.1,0200,CORTEN,EA,2.0,0.0,-2.0,1956.0,0.0,-1956.0,CSS - quote #
03/25/2025,BRADYF_SO.CONTRACT_10575_20904_52500.651,10575.1,0200,PANELS,EA,2.0,0.0,-2.0,7453.12,0.0,-7453.12,Cox Design - quote #112421ES
03/25/2025,BRADYF_SO.CONTRACT_10575_20904_52500.651,10575.2,,PO#21150-2 NAGLE SIG,EA,0.0,2.0,2.0,0.0,233.75,233.75,Provide 2 sets Letter Returns .063
03/25/2025,BRADYF_SO.CONTRACT_10575_20904_52500.651,10575.2,0600,TEMPLATE,EA,20.0,0.0,-20.0,51.0,0.0,-51.0,Mounting Pattern
03/25/2025,BRADYF_SO.CONTRACT_10575_20904_52500.651,10575.3,0200,ANGLE,FT,20.0,0.0,-20.0,181.8,0.0,-181.8,State Steel - 5x5x1/4 (quote #Q1112
03/25/2025,BRADYF_SO.CONTRACT_10575_20904_52500.651,10575.3,0200,CORTEN,EA,2.0,0.0,-2.0,3167.0,0.0,-3167.0,CSS - quote #Q47496
03/25/2025,BRADYF_SO.CONTRACT_10575_20904_52500.651,10575.3,0200,FREIGHT,EA,2.0,0.0,-2.0,500.0,0.0,-500.0,estimated CSS freight
03/25/2025,BRADYF_SO.CONTRACT_10575_20904_52500.651,10575.3,0200,WAVES,EA,2.0,0.0,-2.0,1414.72,0.0,-1414.72,Cox Design - quote #112421ES
03/25/2025,BRADYF_SO.CONTRACT_10585_20904_75612.395,10585.1,,PO#22031-2 CARDMEMBE,EA,0.0,1.0,1.0,0.0,297.28,297.28,8.6 Quikrete High Strength
03/25/2025,BRADYF_SO.CONTRACT_10585_20904_75612.395,10585.1,0200,CORTEN,EA,2.0,0.0,-2.0,1956.0,0.0,-1956.0,CSS - quote #
03/25/2025,BRADYF_SO.CONTRACT_10585_20904_75612.395,10585.1,0200,PANELS,EA,2.0,0.0,-2.0,7453.12,0.0,-7453.12,Cox Design - quote #112421ES
03/25/2025,BRADYF_SO.CONTRACT_10585_20904_75612.395,10585.2,,PO#21150-1 NAGLE SIG,EA,0.0,2.0,2.0,0.0,247.5,247.5,Letter returns .0
03/25/2025,BRADYF_SO.CONTRACT_10585_20904_75612.395,10585.2,0600,TEMPLATE,EA,24.0,0.0,-24.0,61.2,0.0,-61.2,Mounting Pattern
03/25/2025,BRADYF_SO.CONTRACT_10585_20904_75612.395,10585.3,0200,ANGLE,FT,20.0,0.0,-20.0,181.8,0.0,-181.8,State Steel - 5x5x1/4 (quote #Q1112
03/25/2025,BRADYF_SO.CONTRACT_10585_20904_75612.395,10585.3,0200,CORTEN,EA,2.0,0.0,-2.0,3167.0,0.0,-3167.0,CSS - quote #Q47496
03/25/2025,BRADYF_SO.CONTRACT_10585_20904_75612.395,10585.3,0200,FREIGHT,EA,2.0,0.0,-2.0,500.0,0.0,-500.0,estimated CSS freight
03/25/2025,BRADYF_SO.CONTRACT_10585_20904_75612.395,10585.3,0200,WAVES,EA,2.0,0.0,-2.0,1414.72,0.0,-1414.72,Cox Design - quote #112421ES
03/25/2025,BRADYF_SO.CONTRACT_10585_20904_79906.159,10585.1,,PO#22031-2 CARDMEMBE,EA,0.0,1.0,1.0,0.0,297.28,297.28,8.6 Quikrete High Strength
03/25/2025,BRADYF_SO.CONTRACT_10585_20904_79906.159,10585.1,0200,CORTEN,EA,2.0,0.0,-2.0,1956.0,0.0,-1956.0,CSS - quote #
03/25/2025,BRADYF_SO.CONTRACT_10585_20904_79906.159,10585.1,0200,PANELS,EA,2.0,0.0,-2.0,7453.12,0.0,-7453.12,Cox Design - quote #112421ES
03/25/2025,BRADYF_SO.CONTRACT_10585_20904_79906.159,10585.2,,PO#21150-1 NAGLE SIG,EA,0.0,2.0,2.0,0.0,247.5,247.5,Letter returns .0
03/25/2025,BRADYF_SO.CONTRACT_10585_20904_79906.159,10585.2,0600,TEMPLATE,EA,24.0,0.0,-24.0,61.2,0.0,-61.2,Mounting Pattern
03/25/2025,BRADYF_SO.CONTRACT_10585_20904_79906.159,10585.3,0200,ANGLE,FT,20.0,0.0,-20.0,181.8,0.0,-181.8,State Steel - 5x5x1/4 (quote #Q1112
03/25/2025,BRADYF_SO.CONTRACT_10585_20904_79906.159,10585.3,0200,CORTEN,EA,2.0,0.0,-2.0,3167.0,0.0,-3167.0,CSS - quote #Q47496
03/25/2025,BRADYF_SO.CONTRACT_10585_20904_79906.159,10585.3,0200,FREIGHT,EA,2.0,0.0,-2.0,500.0,0.0,-500.0,estimated CSS freight
03/25/2025,BRADYF_SO.CONTRACT_10585_20904_79906.159,10585.3,0200,WAVES,EA,2.0,0.0,-2.0,1414.72,0.0,-1414.72,Cox Design - quote #112421ES
12/03/2025,BRADYF_SO.CONTRACT_10621.3_21157_45291.703,10621.3,,PO#20700-1 NAGLE SIG,EA,0.0,1.0,1.0,0.0,261.25,261.25,Provide 1 set of channel letter ret
12/03/2025,BRADYF_SO.CONTRACT_10621.3_21157_45291.703,10621.3,,PO#20897-1 CONTRACTO,EA,0.0,1.0,1.0,0.0,87.74,87.74,Light adap
12/03/2025,BRADYF_SO.CONTRACT_10621.3_21157_45291.703,10621.3,0200,TAGLINE,EA,13.0,0.0,-13.0,637.0,0.0,-637.0,"Gemini - 1/4"" alum, 7""H"
12/03/2025,BRADYF_SO.CONTRACT_10621.3_21157_45291.703,10621.3,0600,TEMPLATE,EA,18.0,0.0,-18.0,45.9,0.0,-45.9,Mounting Pattern
12/03/2025,BRADYF_SO.CONTRACT_10621.3_21157_45520.241,10621.3,,PO#20700-1 NAGLE SIG,EA,0.0,1.0,1.0,0.0,261.25,261.25,Provide 1 set of channel letter ret
12/03/2025,BRADYF_SO.CONTRACT_10621.3_21157_45520.241,10621.3,,PO#20897-1 CONTRACTO,EA,0.0,1.0,1.0,0.0,87.74,87.74,Light adap
12/03/2025,BRADYF_SO.CONTRACT_10621.3_21157_45520.241,10621.3,0200,TAGLINE,EA,13.0,0.0,-13.0,637.0,0.0,-637.0,"Gemini - 1/4"" alum, 7""H"
12/03/2025,BRADYF_SO.CONTRACT_10621.3_21157_45520.241,10621.3,0600,TEMPLATE,EA,18.0,0.0,-18.0,45.9,0.0,-45.9,Mounting Pattern
12/03/2025,BRADYF_SO.CONTRACT_10621.3_21157_45528.121,10621.3,,PO#20700-1 NAGLE SIG,EA,0.0,1.0,1.0,0.0,261.25,261.25,Provide 1 set of channel letter ret
12/03/2025,BRADYF_SO.CONTRACT_10621.3_21157_45528.121,10621.3,,PO#20897-1 CONTRACTO,EA,0.0,1.0,1.0,0.0,87.74,87.74,Light adap
12/03/2025,BRADYF_SO.CONTRACT_10621.3_21157_45528.121,10621.3,0200,TAGLINE,EA,13.0,0.0,-13.0,637.0,0.0,-637.0,"Gemini - 1/4"" alum, 7""H"
12/03/2025,BRADYF_SO.CONTRACT_10621.3_21157_45528.121,10621.3,0600,TEMPLATE,EA,18.0,0.0,-18.0,45.9,0.0,-45.9,Mounting Pattern
12/03/2025,BRADYF_SO.CONTRACT_10621.3_21157_62269.66,10621.3,,PO#20700-1 NAGLE SIG,EA,0.0,1.0,1.0,0.0,261.25,261.25,Provide 1 set of channel letter ret
12/03/2025,BRADYF_SO.CONTRACT_10621.3_21157_62269.66,10621.3,,PO#20897-1 CONTRACTO,EA,0.0,1.0,1.0,0.0,87.74,87.74,Light adap
12/03/2025,BRADYF_SO.CONTRACT_10621.3_21157_62269.66,10621.3,0200,TAGLINE,EA,13.0,0.0,-13.0,637.0,0.0,-637.0,"Gemini - 1/4"" alum, 7""H"
12/03/2025,BRADYF_SO.CONTRACT_10621.3_21157_62269.66,10621.3,0600,TEMPLATE,EA,18.0,0.0,-18.0,45.9,0.0,-45.9,Mounting Pattern
09/10/2025,BRADYF_SO.CONTRACT_10637.8_21073_41147.049,10637.8,0200,FABSUB1,EA,1.0,0.0,-1.0,62000.0,0.0,-62000.0,bridge structure
09/10/2025,BRADYF_SO.CONTRACT_10637.8_21073_41147.049,10637.8,0200,FABSUB2,EA,1.0,0.0,-1.0,14100.0,0.0,-14100.0,cantilever structure
09/10/2025,BRADYF_SO.CONTRACT_10637.8_21073_41147.049,10637.8,0200,PELCO,EA,9.0,0.0,-9.0,1800.0,0.0,-1800.0,pelco brackets
09/10/2025,BRADYF_SO.CONTRACT_10637.8_21073_41147.049,10637.8,0500,CPC,EA,40.0,0.0,-40.0,260.0,0.0,-260.0,yellow DG3
09/10/2025,BRADYF_SO.CONTRACT_10637.8_21073_41799.181,10637.8,0200,FABSUB1,EA,1.0,0.0,-1.0,62000.0,0.0,-62000.0,bridge structure
09/10/2025,BRADYF_SO.CONTRACT_10637.8_21073_41799.181,10637.8,0200,FABSUB2,EA,1.0,0.0,-1.0,14100.0,0.0,-14100.0,cantilever structure
09/10/2025,BRADYF_SO.CONTRACT_10637.8_21073_41799.181,10637.8,0200,PELCO,EA,9.0,0.0,-9.0,1800.0,0.0,-1800.0,pelco brackets
09/10/2025,BRADYF_SO.CONTRACT_10637.8_21073_41799.181,10637.8,0500,CPC,EA,40.0,0.0,-40.0,260.0,0.0,-260.0,yellow DG3
09/10/2025,BRADYF_SO.CONTRACT_10637.8_21073_41899.459,10637.8,0200,FABSUB1,EA,1.0,0.0,-1.0,62000.0,0.0,-62000.0,bridge structure
09/10/2025,BRADYF_SO.CONTRACT_10637.8_21073_41899.459,10637.8,0200,FABSUB2,EA,1.0,0.0,-1.0,14100.0,0.0,-14100.0,cantilever structure
09/10/2025,BRADYF_SO.CONTRACT_10637.8_21073_41899.459,10637.8,0200,PELCO,EA,9.0,0.0,-9.0,1800.0,0.0,-1800.0,pelco brackets
09/10/2025,BRADYF_SO.CONTRACT_10637.8_21073_41899.459,10637.8,0500,CPC,EA,40.0,0.0,-40.0,260.0,0.0,-260.0,yellow DG3
09/10/2025,BRADYF_SO.CONTRACT_10637.8_21073_41900.46,10637.8,0200,FABSUB1,EA,1.0,0.0,-1.0,62000.0,0.0,-62000.0,bridge structure
09/10/2025,BRADYF_SO.CONTRACT_10637.8_21073_41900.46,10637.8,0200,FABSUB2,EA,1.0,0.0,-1.0,14100.0,0.0,-14100.0,cantilever structure
09/10/2025,BRADYF_SO.CONTRACT_10637.8_21073_41900.46,10637.8,0200,PELCO,EA,9.0,0.0,-9.0,1800.0,0.0,-1800.0,pelco brackets
09/10/2025,BRADYF_SO.CONTRACT_10637.8_21073_41900.46,10637.8,0500,CPC,EA,40.0,0.0,-40.0,260.0,0.0,-260.0,yellow DG3
09/10/2025,BRADYF_SO.CONTRACT_10637.8_21073_41913.189,10637.8,0200,FABSUB1,EA,1.0,0.0,-1.0,62000.0,0.0,-62000.0,bridge structure
09/10/2025,BRADYF_SO.CONTRACT_10637.8_21073_41913.189,10637.8,0200,FABSUB2,EA,1.0,0.0,-1.0,14100.0,0.0,-14100.0,cantilever structure
09/10/2025,BRADYF_SO.CONTRACT_10637.8_21073_41913.189,10637.8,0200,PELCO,EA,9.0,0.0,-9.0,1800.0,0.0,-1800.0,pelco brackets
09/10/2025,BRADYF_SO.CONTRACT_10637.8_21073_41913.189,10637.8,0500,CPC,EA,40.0,0.0,-40.0,260.0,0.0,-260.0,yellow DG3
09/10/2025,BRADYF_SO.CONTRACT_10637.8_21073_41929.597,10637.8,0200,FABSUB1,EA,1.0,0.0,-1.0,62000.0,0.0,-62000.0,bridge structure
09/10/2025,BRADYF_SO.CONTRACT_10637.8_21073_41929.597,10637.8,0200,FABSUB2,EA,1.0,0.0,-1.0,14100.0,0.0,-14100.0,cantilever structure
09/10/2025,BRADYF_SO.CONTRACT_10637.8_21073_41929.597,10637.8,0200,PELCO,EA,9.0,0.0,-9.0,1800.0,0.0,-1800.0,pelco brackets
09/10/2025,BRADYF_SO.CONTRACT_10637.8_21073_41929.597,10637.8,0500,CPC,EA,40.0,0.0,-40.0,260.0,0.0,-260.0,yellow DG3
09/10/2025,BRADYF_SO.CONTRACT_10637.8_21073_41998.712,10637.8,0200,FABSUB1,EA,1.0,0.0,-1.0,62000.0,0.0,-62000.0,bridge structure
09/10/2025,BRADYF_SO.CONTRACT_10637.8_21073_41998.712,10637.8,0200,FABSUB2,EA,1.0,0.0,-1.0,14100.0,0.0,-14100.0,cantilever structure
09/10/2025,BRADYF_SO.CONTRACT_10637.8_21073_41998.712,10637.8,0200,PELCO,EA,9.0,0.0,-9.0,1800.0,0.0,-1800.0,pelco brackets
09/10/2025,BRADYF_SO.CONTRACT_10637.8_21073_41998.712,10637.8,0500,CPC,EA,40.0,0.0,-40.0,260.0,0.0,-260.0,yellow DG3
09/10/2025,BRADYF_SO.CONTRACT_10637.8_21073_42027.98,10637.8,0200,FABSUB1,EA,1.0,0.0,-1.0,62000.0,0.0,-62000.0,bridge structure
09/10/2025,BRADYF_SO.CONTRACT_10637.8_21073_42027.98,10637.8,0200,FABSUB2,EA,1.0,0.0,-1.0,14100.0,0.0,-14100.0,cantilever structure
09/10/2025,BRADYF_SO.CONTRACT_10637.8_21073_42027.98,10637.8,0200,PELCO,EA,9.0,0.0,-9.0,1800.0,0.0,-1800.0,pelco brackets
09/10/2025,BRADYF_SO.CONTRACT_10637.8_21073_42027.98,10637.8,0500,CPC,EA,40.0,0.0,-40.0,260.0,0.0,-260.0,yellow DG3
09/10/2025,BRADYF_SO.CONTRACT_10637.8_21073_50177.128,10637.8,0200,FABSUB1,EA,1.0,0.0,-1.0,62000.0,0.0,-62000.0,bridge structure
09/10/2025,BRADYF_SO.CONTRACT_10637.8_21073_50177.128,10637.8,0200,FABSUB2,EA,1.0,0.0,-1.0,14100.0,0.0,-14100.0,cantilever structure
09/10/2025,BRADYF_SO.CONTRACT_10637.8_21073_50177.128,10637.8,0200,PELCO,EA,9.0,0.0,-9.0,1800.0,0.0,-1800.0,pelco brackets
09/10/2025,BRADYF_SO.CONTRACT_10637.8_21073_50177.128,10637.8,0500,CPC,EA,40.0,0.0,-40.0,260.0,0.0,-260.0,yellow DG3
12/03/2025,BRADYF_SO.CONTRACT_10663.1_21157_61254.613,10663.1,0200,GEMINI,EA,1.0,0.0,-1.0,311.09,0.0,-311.09,Gemini - quote #E608930
12/03/2025,BRADYF_SO.CONTRACT_10663.1_21157_61295.923,10663.1,0200,GEMINI,EA,1.0,0.0,-1.0,311.09,0.0,-311.09,Gemini - quote #E608930
12/03/2025,BRADYF_SO.CONTRACT_10663.1_21157_61913.506,10663.1,0200,GEMINI,EA,1.0,0.0,-1.0,311.09,0.0,-311.09,Gemini - quote #E608930
02/15/2026,BRADYF_SO.CONTRACT_1067.2_21231_49873.661,1069.1,,PO#1257-1 LAKEVILLE,EA,0.0,1.0,1.0,0.0,97.35,97.35,ship signs to choctaw ok
02/15/2026,BRADYF_SO.CONTRACT_1067.2_21231_49873.661,1070.1,,PO#1124-1 ALL-BRITE,EA,0.0,1.0,1.0,0.0,1320.0,1320.0,Repair the
02/15/2026,BRADYF_SO.CONTRACT_1067.2_21231_49873.661,1076.1,,PO#1339-1 NAGLE SIGN,EA,0.0,1.0,1.0,0.0,2011.41,2011.41,Fabricate (1) awning as shown in Ea
02/15/2026,BRADYF_SO.CONTRACT_1067.2_21231_49873.661,1076.1,0600,HARDWARE,EA,1.0,0.0,-1.0,25.0,0.0,-25.0,mounting
02/15/2026,BRADYF_SO.CONTRACT_1067.2_21231_49873.661,1076.2,,PO#1132-1 MIDWEST SI,EA,0.0,1.0,1.0,0.0,150.0,150.0,Survey to
02/15/2026,BRADYF_SO.CONTRACT_1067.2_21231_49873.661,1076.3,,Liberty1076 CITY OF,0,0.0,0.0,0.0,0.0,0.0,26.0,Liberty Bank Permit Fee
02/15/2026,BRADYF_SO.CONTRACT_1067.2_21231_49873.661,1076.4,,00016070 CORNERSTONE,0,0.0,0.0,0.0,0.0,0.0,466.0,Liberty Bank Awnings - Engineering
02/15/2026,BRADYF_SO.CONTRACT_1067.2_21231_49873.661,1079.7,,PO#1299-1 NAGLE SIGN,EA,0.0,2.0,2.0,0.0,672.3,672.3,Hire Nagle Signs to fabricate (2) 6
02/15/2026,BRADYF_SO.CONTRACT_1067.2_21231_49873.661,1079.7,,PO#1417-1 ABC HERRIN,EA,0.0,2.0,2.0,0.0,99.42,99.42,"Silkscreen (2) 6´-2"" Taco John awni"
02/15/2026,BRADYF_SO.CONTRACT_1067.2_21231_49873.661,1079.8,,PO#1299-2 NAGLE SIGN,EA,0.0,2.0,2.0,0.0,672.3,672.3,Hire Nagle Signs to fabricate (2) 2
02/15/2026,BRADYF_SO.CONTRACT_1067.2_21231_49873.661,1079.8,,PO#1417-2 ABC HERRIN,EA,0.0,2.0,2.0,0.0,99.42,99.42,"Silkscreen (2) 2´-8"" Taco John awni"
02/15/2026,BRADYF_SO.CONTRACT_1067.2_21231_49873.661,1080.1,0500,HARDWARE,EA,1.0,0.0,-1.0,144.0,0.0,-144.0,digatal print
02/15/2026,BRADYF_SO.CONTRACT_1067.2_21231_49873.661,1080.2,0600,HARDWARE,EA,1.0,0.0,-1.0,20.0,0.0,-20.0,parts
09/03/2024,BRADYF_SO.CONTRACT_10712.1_20701_56332.732,10712.1,0500,OVERLAMINATE,SF,240.0,0.0,-240.0,240.0,0.0,-240.0,Overlaminate
11/06/2024,BRADYF_SO.CONTRACT_10778_20765_36369.992,10778.1,,PO#21092-2 NAGLE SIG,EA,0.0,1.0,1.0,0.0,165.0,165.0,"Provide letter returns 5.3""x .040 M"
11/06/2024,BRADYF_SO.CONTRACT_10778_20765_36369.992,10778.1,,PO#21210-1 NAGLE SIG,EA,0.0,1.0,1.0,0.0,165.0,165.0,"Provide (1) set of 5"" x .040 Mill F"
11/06/2024,BRADYF_SO.CONTRACT_10778_20765_36369.992,10778.1,0300,BULBS,EA,110.0,0.0,-110.0,420.2,0.0,-420.2,Action Lighting - G48 E27 Base LED
11/06/2024,BRADYF_SO.CONTRACT_10778_20765_36369.992,10778.2,,PO#21092-3 NAGLE SIG,EA,0.0,1.0,1.0,0.0,151.25,151.25,Provide Letter returns 5.3 x.040 Mi
11/06/2024,BRADYF_SO.CONTRACT_10778_20765_36369.992,10778.2,,PO#21582-1 CONTRACTO,EA,0.0,1.0,1.0,0.0,302.0,302.0,PROVIDE 16' JLG LIFT TO JOBSITE. ON
11/06/2024,BRADYF_SO.CONTRACT_10778_20765_36369.992,10778.2,,PO#21614-1 CONTRACTO,EA,0.0,1.0,1.0,0.0,80.25,80.25,PROVIDE TILT TRAILER TO TRANSPORT S
11/06/2024,BRADYF_SO.CONTRACT_10778_20765_36369.992,10778.2,0300,BULBS,EA,144.0,0.0,-144.0,550.08,0.0,-550.08,Action Lighting - G48 E27 Base LED
11/06/2024,BRADYF_SO.CONTRACT_10778_20765_36369.992,10778.3,0200,FABRIC,LYD,5.0,0.0,-5.0,83.5,0.0,-83.5,TriVantage - Sunbrella® Awning / Ma
05/28/2025,BRADYF_SO.CONTRACT_10796_20968_57455.907,10796.1,,PO#21073-1 NAGLE SIG,EA,0.0,1.0,1.0,0.0,27.5,27.5,.040x
05/28/2025,BRADYF_SO.CONTRACT_10796_20968_57455.907,10796.1,0500,OVERLAMINATE,SF,35.0,0.0,-35.0,38.5,0.0,-38.5,Overlaminate
05/28/2025,BRADYF_SO.CONTRACT_10796_20968_57455.907,10796.2,,PO#21073-2 NAGLE SIG,EA,0.0,1.0,1.0,0.0,27.5,27.5,Return - Identical to first one.
05/28/2025,BRADYF_SO.CONTRACT_10796_20968_57455.907,10796.2,0500,OVERLAMINATE,SF,25.0,0.0,-25.0,37.5,0.0,-37.5,Overlaminate
05/28/2025,BRADYF_SO.CONTRACT_10796_20968_57455.907,10796.4,0500,OVERLAMINATE,SF,9.0,0.0,-9.0,9.0,0.0,-9.0,Overlaminate
02/15/2026,BRADYF_SO.CONTRACT_1080.3_21231_49887.599,1080.3,0500,HARDWARE,EA,12.0,0.0,-12.0,108.0,0.0,-108.0,digatal print
02/15/2026,BRADYF_SO.CONTRACT_1080.3_21231_49887.599,1080.4,0600,HARDWARE,EA,1.0,0.0,-1.0,30.0,0.0,-30.0,parts
02/15/2026,BRADYF_SO.CONTRACT_1080.3_21231_49887.599,1082.1,,transfer back from 1,0,0.0,0.0,0.0,0.0,0.0,498.54,transfer back from 1160.1
02/15/2026,BRADYF_SO.CONTRACT_1080.3_21231_49887.599,1082.1,,move cost to 1160.1,0,0.0,0.0,0.0,0.0,0.0,-498.54,move cost to 1160.1
02/15/2026,BRADYF_SO.CONTRACT_1080.3_21231_49887.599,1082.1,,transfer freight fro,0,0.0,0.0,0.0,0.0,0.0,1632.78,transfer freight from 1160.1
02/15/2026,BRADYF_SO.CONTRACT_1080.3_21231_49887.599,1082.1,,Transfer to 1160.3,0,0.0,0.0,0.0,0.0,0.0,-1632.78,Transfer to 1160.3
02/15/2026,BRADYF_SO.CONTRACT_1080.3_21231_49887.599,1088.8,,PO#1167-1 NAGLE SIGN,EA,0.0,6.0,6.0,0.0,2101.2,2101.2,"Taco John 6´ 0"" non-illuminated awn"
02/15/2026,BRADYF_SO.CONTRACT_1080.3_21231_49887.599,1088.8,,PO#1417-3 ABC HERRIN,EA,0.0,6.0,6.0,0.0,298.28,298.28,"Silkscreen (6) 6´-0"" Taco John awni"
02/15/2026,BRADYF_SO.CONTRACT_1080.3_21231_49887.599,1088.16,,PO#1888-1 NAGLE SIGN,EA,0.0,1.0,1.0,0.0,558.0,558.0,Assist Eagle Sign with removal of e
02/15/2026,BRADYF_SO.CONTRACT_1080.3_21231_49887.599,1088.16,,Taco John's Signage,0,0.0,0.0,0.0,0.0,0.0,23.0,CHECK 2797
02/15/2026,BRADYF_SO.CONTRACT_1080.3_21231_49887.599,1088.17,0200,LIGHT,EA,1.0,0.0,-1.0,1051.44,0.0,-1051.44,purchase goose neck lights for this
02/15/2026,BRADYF_SO.CONTRACT_1080.3_21231_49887.599,1089.1,,PO#1258-1 LAKEVILLE,EA,0.0,1.0,1.0,0.0,509.0,509.0,ship signs
02/15/2026,BRADYF_SO.CONTRACT_1080.3_21231_49887.599,1093.1,0600,HARDWARE,EA,1.0,0.0,-1.0,5.0,0.0,-5.0,mounting
02/12/2026,BRADYF_SO.CONTRACT_10863.2_21228_76595.583,10863.2,,PO#21286-1 NAGLE SIG,EA,0.0,1.0,1.0,0.0,220.0,220.0,"(1) set letter returns 3.5"" black l"
02/12/2026,BRADYF_SO.CONTRACT_10863.2_21228_76595.583,10863.2,0200,ACRYLIC,SF,12.0,0.0,-12.0,230.44,0.0,-230.44,"Sabic - 1"" clear acrylic"
02/12/2026,BRADYF_SO.CONTRACT_10863.2_21228_76595.583,10863.2,0500,OVERLAMINATE,SF,54.0,0.0,-54.0,59.4,0.0,-59.4,Overlaminate
02/12/2026,BRADYF_SO.CONTRACT_10863.2_21228_76595.583,10863.2,0600,TEMPLATE,EA,12.0,0.0,-12.0,30.6,0.0,-30.6,Mounting Pattern
02/12/2026,BRADYF_SO.CONTRACT_10863.2_21228_76657.886,10863.2,,PO#21286-1 NAGLE SIG,EA,0.0,1.0,1.0,0.0,220.0,220.0,"(1) set letter returns 3.5"" black l"
02/12/2026,BRADYF_SO.CONTRACT_10863.2_21228_76657.886,10863.2,0200,ACRYLIC,SF,12.0,0.0,-12.0,230.44,0.0,-230.44,"Sabic - 1"" clear acrylic"
02/12/2026,BRADYF_SO.CONTRACT_10863.2_21228_76657.886,10863.2,0500,OVERLAMINATE,SF,54.0,0.0,-54.0,59.4,0.0,-59.4,Overlaminate
02/12/2026,BRADYF_SO.CONTRACT_10863.2_21228_76657.886,10863.2,0600,TEMPLATE,EA,12.0,0.0,-12.0,30.6,0.0,-30.6,Mounting Pattern
02/15/2026,BRADYF_SO.CONTRACT_1097.1_21231_49902.478,1097.2,,3920384611 LAKEVILLE,0,0.0,0.0,0.0,0.0,0.0,146.56,Freight
02/15/2026,BRADYF_SO.CONTRACT_1097.1_21231_49902.478,1097.2,,PO#1629-1 LAKEVILLE,EA,0.0,1.0,1.0,0.0,50.0,50.0,freight
02/15/2026,BRADYF_SO.CONTRACT_1097.1_21231_49902.478,1098.1,,PO#1174-1 NAGLE SIGN,EA,0.0,1.0,1.0,0.0,52.76,52.76,DIGITAL PRINT FOR BODY
02/15/2026,BRADYF_SO.CONTRACT_1097.1_21231_49902.478,1098.1,0200,PUMPY,EA,1.0,0.0,-1.0,919.0,0.0,-919.0,Logo
02/15/2026,BRADYF_SO.CONTRACT_1097.1_21231_49902.478,1099.1,0200,ARM,EA,1.0,0.0,-1.0,79.0,0.0,-79.0,6to18 changer
02/15/2026,BRADYF_SO.CONTRACT_1097.1_21231_49902.478,1099.1,0200,BOX,EA,1.0,0.0,-1.0,88.0,0.0,-88.0,"8""storage"
02/15/2026,BRADYF_SO.CONTRACT_1097.1_21231_49902.478,1099.1,0200,COPY,EA,1.0,0.0,-1.0,2439.0,0.0,-2439.0,4x8 changeable
02/15/2026,BRADYF_SO.CONTRACT_1097.1_21231_49902.478,1099.1,0200,FONT,EA,1.0,0.0,-1.0,390.0,0.0,-390.0,
02/15/2026,BRADYF_SO.CONTRACT_1097.1_21231_49902.478,1099.1,0200,POLE,EA,1.0,0.0,-1.0,1253.0,0.0,-1253.0,standard
02/15/2026,BRADYF_SO.CONTRACT_1097.1_21231_49902.478,1099.1,0200,PYLON,EA,1.0,0.0,-1.0,3371.0,0.0,-3371.0,6x12 logo
02/15/2026,BRADYF_SO.CONTRACT_1097.1_21231_49902.478,1099.3,,PO#1196-1 SCHURLE SI,EA,0.0,1.0,1.0,0.0,2110.0,2110.0,"Secure permits.Recieve, inspect and"
02/15/2026,BRADYF_SO.CONTRACT_1097.1_21231_49902.478,1099.3,,PO#1196-2 SCHURLE SI,EA,0.0,1.0,1.0,0.0,274.59,274.59,"Repaint pole, and taxes from origin"
02/15/2026,BRADYF_SO.CONTRACT_1097.1_21231_49902.478,1099.3,,Engineering showing,0,0.0,0.0,0.0,0.0,0.0,216.0,Engineering showing J bolt base for
02/15/2026,BRADYF_SO.CONTRACT_1097.1_21231_49902.478,1099.4,,3920384613 LAKEVILLE,0,0.0,0.0,0.0,0.0,0.0,347.77,Freight
02/15/2026,BRADYF_SO.CONTRACT_1097.1_21231_49902.478,1100.1,,PO#1296-1 LAKEVILLE,EA,0.0,1.0,1.0,0.0,1163.68,1163.68,PREPAID FREIGHT - SHIP 5´ X 20´ CAT
02/15/2026,BRADYF_SO.CONTRACT_1097.1_21231_49902.478,1104.4,0500,HARDWARE,EA,96.0,0.0,-96.0,384.0,0.0,-384.0,digatal print
02/15/2026,BRADYF_SO.CONTRACT_1097.1_21231_49902.478,1104.6,0600,HARDWARE,EA,24.0,0.0,-24.0,252.0,0.0,-252.0,all the parts in dis.
02/15/2026,BRADYF_SO.CONTRACT_1097.1_21231_49902.478,1105.1,,PO#1211-1 NAGLE SIGN,EA,0.0,1.0,1.0,0.0,76.8,76.8,Digital print for Dr. Brett Rohlfse
02/15/2026,BRADYF_SO.CONTRACT_1097.1_21231_49902.478,1105.1,,PO#1288-1 NAGLE SIGN,EA,0.0,1.0,1.0,0.0,877.56,877.56,"Hire Nagle Signs to route .250"" alu"
02/15/2026,BRADYF_SO.CONTRACT_1097.1_21231_49902.478,1105.1,0600,HARDWARE,EA,1.0,0.0,-1.0,25.0,0.0,-25.0,mounting
02/15/2026,BRADYF_SO.CONTRACT_1097.1_21231_49902.478,1105.3,,PO#1344-1 AIRPORT SI,EA,0.0,1.0,1.0,0.0,100.0,100.0,Fabricate and install (1) temporary
02/15/2026,BRADYF_SO.CONTRACT_1097.1_21231_49902.478,1111.1,,labor not recorded,0,0.0,0.0,0.0,0.0,0.0,35.0,labor not recorded
05/09/2025,BRADYF_SO.CONTRACT_11012_20949_64465.345,11012.1,0300,150W,EA,2.0,0.0,-2.0,166.96,0.0,-166.96,Grimco - HanleyLED 24 Volt Premium
05/09/2025,BRADYF_SO.CONTRACT_11012_20949_64465.345,11012.1,0300,LEDS,EA,7.0,0.0,-7.0,493.99,0.0,-493.99,Grimco - HanleyLED PhoenixNRG Bar S
05/09/2025,BRADYF_SO.CONTRACT_11012_20949_64465.345,11012.1,0600,DISPOSAL,EA,10.0,0.0,-10.0,10.0,0.0,-10.0,Lamp disposal
04/09/2025,BRADYF_SO.CONTRACT_11040.4_20919_49366.206,11040.4,0200,ACM,EA,1.0,0.0,-1.0,122.04,0.0,-122.04,"NGlantz - 6MM 48"" X 96"" WHITE 2 SID"
04/09/2025,BRADYF_SO.CONTRACT_11040.4_20919_49366.206,11040.4,0500,OVERLAMINATE,SF,41.0,0.0,-41.0,61.5,0.0,-61.5,Overlaminate
01/29/2026,BRADYF_SO.CONTRACT_11055_21214_54048.238,11059.1,0300,AMP,EA,1.0,0.0,-1.0,45.0,0.0,-45.0,For RGB
01/29/2026,BRADYF_SO.CONTRACT_11055_21214_54048.238,11059.1,0300,CONTROLLER,EA,1.0,0.0,-1.0,160.0,0.0,-160.0,Weather Proof for RGB
01/29/2026,BRADYF_SO.CONTRACT_11055_21214_54048.238,11059.1,0300,DRIVER,EA,2.0,0.0,-2.0,70.0,0.0,-70.0,For RGB
01/29/2026,BRADYF_SO.CONTRACT_11055_21214_54048.238,11059.1,0300,LED,EA,2.0,0.0,-2.0,678.0,0.0,-678.0,One bag 90 mods RBG
01/29/2026,BRADYF_SO.CONTRACT_11055_21214_54048.238,11059.1,0300,WIRE,EA,30.0,0.0,-30.0,15.0,0.0,-15.0,For RGB
01/29/2026,BRADYF_SO.CONTRACT_11055_21214_54845.618,11059.1,0300,AMP,EA,1.0,0.0,-1.0,45.0,0.0,-45.0,For RGB
01/29/2026,BRADYF_SO.CONTRACT_11055_21214_54845.618,11059.1,0300,CONTROLLER,EA,1.0,0.0,-1.0,160.0,0.0,-160.0,Weather Proof for RGB
01/29/2026,BRADYF_SO.CONTRACT_11055_21214_54845.618,11059.1,0300,DRIVER,EA,2.0,0.0,-2.0,70.0,0.0,-70.0,For RGB
01/29/2026,BRADYF_SO.CONTRACT_11055_21214_54845.618,11059.1,0300,LED,EA,2.0,0.0,-2.0,678.0,0.0,-678.0,One bag 90 mods RBG
01/29/2026,BRADYF_SO.CONTRACT_11055_21214_54845.618,11059.1,0300,WIRE,EA,30.0,0.0,-30.0,15.0,0.0,-15.0,For RGB
01/29/2026,BRADYF_SO.CONTRACT_11056.2_21214_85722.09,11059.1,0300,AMP,EA,1.0,0.0,-1.0,45.0,0.0,-45.0,For RGB
01/29/2026,BRADYF_SO.CONTRACT_11056.2_21214_85722.09,11059.1,0300,CONTROLLER,EA,1.0,0.0,-1.0,160.0,0.0,-160.0,Weather Proof for RGB
01/29/2026,BRADYF_SO.CONTRACT_11056.2_21214_85722.09,11059.1,0300,DRIVER,EA,2.0,0.0,-2.0,70.0,0.0,-70.0,For RGB
01/29/2026,BRADYF_SO.CONTRACT_11056.2_21214_85722.09,11059.1,0300,LED,EA,2.0,0.0,-2.0,678.0,0.0,-678.0,One bag 90 mods RBG
01/29/2026,BRADYF_SO.CONTRACT_11056.2_21214_85722.09,11059.1,0300,WIRE,EA,30.0,0.0,-30.0,15.0,0.0,-15.0,For RGB
01/29/2026,BRADYF_SO.CONTRACT_11056.2_21214_85722.09,11068.1,,PO#21891-1 BTI LOGIS,EA,0.0,1.0,1.0,0.0,1625.0,1625.0,shipping for cat scale.
01/29/2026,BRADYF_SO.CONTRACT_11056.2_21214_85722.09,11071.1,,PO#21990-1 BTI SPECI,EA,0.0,1.0,1.0,0.0,800.0,800.0,SHIPPING - BTI STEPDECK TO WALCOTT
01/29/2026,BRADYF_SO.CONTRACT_11056.2_21214_85722.09,11071.2,,PO#22045-2 BTI SPECI,EA,0.0,1.0,1.0,0.0,270.0,270.0,WO 11071.2 Shipping 150 intercom co
01/29/2026,BRADYF_SO.CONTRACT_11056.2_21214_85722.09,11072.1,,PO#21890-1 UNISHIPPE,EA,0.0,1.0,1.0,0.0,154.69,154.69,shipping for cat scale.
01/29/2026,BRADYF_SO.CONTRACT_11056.2_21214_85722.09,11073.1,,PO#22061-1 BTI LOGIS,EA,0.0,1.0,1.0,0.0,3400.0,3400.0,shipping for cat scale.
01/29/2026,BRADYF_SO.CONTRACT_11056.2_21214_85722.09,11074.1,0200,FACE,EA,1.0,0.0,-1.0,893.0,0.0,-893.0,Miratec - quote #164702-1
01/29/2026,BRADYF_SO.CONTRACT_11056.2_21214_85722.09,11074.1,0200,FRAME,EA,1.0,0.0,-1.0,829.84,0.0,-829.84,Excellart - kerf cut frame (email q
01/29/2026,BRADYF_SO.CONTRACT_11056.2_21214_85722.09,11074.1,0200,SHIPPING,EA,1.0,0.0,-1.0,200.0,0.0,-200.0,estimated Excellart shipping
01/29/2026,BRADYF_SO.CONTRACT_11056.2_21214_85722.09,11074.3,0200,GEMINI,EA,1.0,0.0,-1.0,2970.3,0.0,-2970.3,Gemini - quote #E791400
01/29/2026,BRADYF_SO.CONTRACT_11056.2_21214_85722.09,11075.1,,PO#21978-1 PYRAMID M,EA,0.0,2.0,2.0,0.0,4200.0,4200.0,Footings and masonry for directiona
01/29/2026,BRADYF_SO.CONTRACT_11056.2_21214_85722.09,11075.1,0500,OVERLAMINATE,SF,28.0,0.0,-28.0,28.0,0.0,-28.0,Overlaminate
01/29/2026,BRADYF_SO.CONTRACT_11056.2_21214_85722.09,11075.1,0600,MASONRY,EA,2.0,0.0,-2.0,4200.0,0.0,-4200.0,Pyramid Masonry - email quote
01/29/2026,BRADYF_SO.CONTRACT_11056.2_21214_85722.09,11082.2,0200,GEMINI,EA,1.0,0.0,-1.0,2199.94,0.0,-2199.94,Gemini - quote #6338063
01/29/2026,BRADYF_SO.CONTRACT_11056.2_21214_85722.09,11083.1,,PO#21942-1 UNISHIPPE,EA,0.0,1.0,1.0,0.0,102.84,102.84,shipping for cat scale.
01/29/2026,BRADYF_SO.CONTRACT_11056.2_21214_85722.09,11084.1,,PO#21942-2 UNISHIPPE,EA,0.0,1.0,1.0,0.0,102.83,102.83,shipping for cat scale.
01/29/2026,BRADYF_SO.CONTRACT_11056.2_21214_85722.09,11085.1,,PO#21941-1 UNISHIPPE,EA,0.0,1.0,1.0,0.0,122.91,122.91,shipping for cat scale.
01/29/2026,BRADYF_SO.CONTRACT_11056.2_21214_85722.09,11086.1,,PO#21941-2 UNISHIPPE,EA,0.0,1.0,1.0,0.0,122.91,122.91,shipping for cat scale.
01/29/2026,BRADYF_SO.CONTRACT_11056.2_21214_85722.09,11091.1,,PO#21992-1 NAGLE SIG,EA,0.0,1.0,1.0,0.0,137.5,137.5,Provide 1 set of returns for Letter
01/29/2026,BRADYF_SO.CONTRACT_11056.2_21214_85722.09,11091.1,0500,OVERLAMINATE,SF,50.0,0.0,-50.0,45.0,0.0,-45.0,Overlaminate
01/29/2026,BRADYF_SO.CONTRACT_11056.2_21214_85722.09,11091.3,0500,OVERLAMINATE,SF,32.0,0.0,-32.0,32.0,0.0,-32.0,Overlaminate 502-0410-36
01/29/2026,BRADYF_SO.CONTRACT_11056.2_21214_85722.09,11091.3,0500,PERF,SF,32.0,0.0,-32.0,139.84,0.0,-139.84,"502-0190-48 - 48"" dual color white"
01/29/2026,BRADYF_SO.CONTRACT_11056.2_21214_85722.09,11091.3,0500,TAPE,LF,23.0,0.0,-23.0,2.3,0.0,-2.3,"502-0650-50 1/2"" edge seal tape"
01/29/2026,BRADYF_SO.CONTRACT_11056.2_21214_85722.09,11091.4,0500,OVERLAMINATE,SF,32.0,0.0,-32.0,32.0,0.0,-32.0,Overlaminate 502-0410-36
01/29/2026,BRADYF_SO.CONTRACT_11056.2_21214_85722.09,11091.4,0500,PERF,SF,32.0,0.0,-32.0,139.84,0.0,-139.84,"502-0190-48 - 48"" dual color white"
01/29/2026,BRADYF_SO.CONTRACT_11056.2_21214_85722.09,11091.4,0500,TAPE,LF,23.0,0.0,-23.0,2.3,0.0,-2.3,"502-0650-50 1/2"" edge seal tape"
01/29/2026,BRADYF_SO.CONTRACT_11056.2_21214_85722.09,11093.1,,PO#21916-1 UNISHIPPE,EA,0.0,1.0,1.0,0.0,155.13,155.13,shipping for cat scale.
01/29/2026,BRADYF_SO.CONTRACT_11056.2_21214_85722.09,11097.1,0200,FABRIC,LYD,10.0,0.0,-10.0,222.4,0.0,-222.4,Fabric - Sunbrella® Awning / Marine
01/29/2026,BRADYF_SO.CONTRACT_11056.2_21214_85722.09,11101.1,,PO#21931-1 UNISHIPPE,EA,0.0,1.0,1.0,0.0,155.13,155.13,shipping for cat scale.
01/29/2026,BRADYF_SO.CONTRACT_11056.2_21214_85722.09,11105.2,0200,HARDWARE,EA,1.0,0.0,-1.0,11.73,0.0,-11.73,misc
01/29/2026,BRADYF_SO.CONTRACT_11056.2_21214_85722.09,11105.2,0300,NRG36,EA,6.0,0.0,-6.0,158.7,0.0,-158.7,Grimco - HanleyLED PhoenixNRG Bar S
01/29/2026,BRADYF_SO.CONTRACT_11056.2_21214_85722.09,11106.1,,PO#21959-1 NAGLE SIG,EA,0.0,1.0,1.0,0.0,192.5,192.5,Provide (1) set of returns for Logo
01/29/2026,BRADYF_SO.CONTRACT_11056.2_21214_85722.09,11107.1,0500,OVERLAMINATE,SF,2.0,0.0,-2.0,2.0,0.0,-2.0,Overlaminate
01/29/2026,BRADYF_SO.CONTRACT_11056.2_21214_85722.09,1111.1,,labor not recorded,0,0.0,0.0,0.0,0.0,0.0,35.0,labor not recorded
01/29/2026,BRADYF_SO.CONTRACT_11056.2_21214_85722.09,11110.1,,PO#21988-1 BTI LOGIS,EA,0.0,1.0,1.0,0.0,1400.0,1400.0,"Shipping to YESCO Indianpolis, IN f"
01/29/2026,BRADYF_SO.CONTRACT_11056.2_21214_85722.09,11111.1,,PO#21950-1 NAGLE SIG,EA,0.0,3.0,3.0,0.0,75.38,75.38,Provide: (x3 total) Digital Prints
01/29/2026,BRADYF_SO.CONTRACT_11056.2_21214_85722.09,11111.1,0500,OVERLAMINATE,SF,4.0,0.0,-4.0,4.0,0.0,-4.0,Overlaminate
01/29/2026,BRADYF_SO.CONTRACT_11056.2_21214_85722.09,11115.1,,PO#22081-1 UNISHIPPE,EA,0.0,1.0,1.0,0.0,74.55,74.55,shipping for cat scale.
01/29/2026,BRADYF_SO.CONTRACT_11056.2_21214_85722.09,11120.1,0500,OVERLAMINATE,SF,2.0,0.0,-2.0,2.0,0.0,-2.0,Overlaminate
01/29/2026,BRADYF_SO.CONTRACT_11056.2_21214_85722.09,11120.2,0500,OVERLAMINATE,SF,1.0,0.0,-1.0,1.0,0.0,-1.0,Overlaminate
01/29/2026,BRADYF_SO.CONTRACT_11056.2_21214_85722.09,11125.2,,PO#22238-1 CONTRACTO,EA,0.0,1.0,1.0,0.0,764.06,764.06,"PROVIDE 85´JLG LIFT ON SITE,"
01/29/2026,BRADYF_SO.CONTRACT_11056.2_21214_85722.09,11129.2,,PO#22056-1 NAGLE SIG,EA,0.0,1.0,1.0,0.0,330.0,330.0,Provide 1 set of Letter Returns 3.5
01/29/2026,BRADYF_SO.CONTRACT_11056.2_21214_85722.09,11129.3,0200,LETTERS,EA,1.0,0.0,-1.0,500.0,0.0,-500.0,"1/4"" thick plex stud mount GEMINI"
01/29/2026,BRADYF_SO.CONTRACT_11056.2_21214_85722.09,11129.6,0600,PATTERN,EA,4.0,0.0,-4.0,10.2,0.0,-10.2,Mounting template
01/29/2026,BRADYF_SO.CONTRACT_11056.2_21214_85722.09,11131.1,,PO#22036-1 NAGLE SIG,EA,0.0,1.0,1.0,0.0,110.0,110.0,Provide: 1 set letter and logo retu
01/29/2026,BRADYF_SO.CONTRACT_11056.2_21214_85722.09,11131.1,0500,OVERLAMINATE,SF,36.0,0.0,-36.0,45.0,0.0,-45.0,Overlaminate
01/29/2026,BRADYF_SO.CONTRACT_11056.2_21214_85722.09,11132.1,,PO#22018-1 NAGLE SIG,EA,0.0,1.0,1.0,0.0,110.0,110.0,Provide 1 set of Letter returns 3.5
01/29/2026,BRADYF_SO.CONTRACT_11056.2_21214_85722.09,11132.1,0600,TEMPLATE,EA,10.0,0.0,-10.0,50.0,0.0,-50.0,Mounting Pattern old and new sets
01/29/2026,BRADYF_SO.CONTRACT_11056.2_21214_85722.09,11132.2,0600,PATTERN,EA,5.0,0.0,-5.0,25.0,0.0,-25.0,Mounting Template
01/29/2026,BRADYF_SO.CONTRACT_11056.2_21214_85722.09,11136.1,0200,GEMINI,EA,1.0,0.0,-1.0,438.79,0.0,-438.79,Gemini - quote #E811400
01/29/2026,BRADYF_SO.CONTRACT_11056.2_21214_85722.09,11139.3,,PO#22077-1 NAGLE SIG,EA,0.0,1.0,1.0,0.0,220.0,220.0,Provide: 1 set of letter and logo r
01/29/2026,BRADYF_SO.CONTRACT_11056.2_21214_85722.09,11139.3,0500,PERF,SF,60.0,0.0,-60.0,262.2,0.0,-262.2,"#502-0190-48 - 48"" dual color white"
01/29/2026,BRADYF_SO.CONTRACT_11056.2_21214_85722.09,11139.3,0600,OVERNIGHT,EA,2.0,0.0,-2.0,300.0,0.0,-300.0,"Food, lodging"
01/29/2026,BRADYF_SO.CONTRACT_11056.2_21214_85722.09,11139.3,0600,TEMPLATE,EA,14.0,0.0,-14.0,35.7,0.0,-35.7,Mounting Pattern
01/29/2026,BRADYF_SO.CONTRACT_11056.2_21214_85722.09,11139.4,,PO#22077-2 NAGLE SIG,EA,0.0,1.0,1.0,0.0,192.5,192.5,Provide: 1 set of letter and logo r
01/29/2026,BRADYF_SO.CONTRACT_11056.2_21214_85722.09,11139.4,0600,OVERNIGHT,EA,2.0,0.0,-2.0,300.0,0.0,-300.0,"Food, lodging"
01/29/2026,BRADYF_SO.CONTRACT_11056.2_21214_85722.09,11139.4,0600,TEMPLATE,EA,14.0,0.0,-14.0,35.7,0.0,-35.7,Mounting Pattern
01/29/2026,BRADYF_SO.CONTRACT_11056.2_21214_85722.09,11140.1,0200,BANNER,SF,32.0,0.0,-32.0,56.0,0.0,-56.0,Signs365.com - 15oz Single Sided ba
01/29/2026,BRADYF_SO.CONTRACT_11056.2_21214_85722.09,11140.1,0200,SHIPPING,EA,2.0,0.0,-2.0,20.0,0.0,-20.0,estimated Signs365 shipping
01/29/2026,BRADYF_SO.CONTRACT_11056.2_21214_85722.09,11142.2,0200,FACES,EA,1.0,0.0,-1.0,650.1,0.0,-650.1,Commercial Plastics - quote
01/29/2026,BRADYF_SO.CONTRACT_11056.2_21214_85722.09,11142.2,0200,FREIGHT,EA,1.0,0.0,-1.0,272.2,0.0,-272.2,Commercial Plastics - freight
01/29/2026,BRADYF_SO.CONTRACT_11056.2_21214_85722.09,11142.3,0200,ACM,EA,1.0,0.0,-1.0,57.72,0.0,-57.72,"NGlantz - 3MM 48"" X 96"" WHITE 2 SID"
01/29/2026,BRADYF_SO.CONTRACT_11056.2_21214_85722.09,11148.1,,PO#22032-2 RODERICK,EA,0.0,1.0,1.0,0.0,250.0,250.0,
01/29/2026,BRADYF_SO.CONTRACT_11056.2_21214_85722.09,1115.1,,PO#1311-2 NAGLE SIGN,EA,0.0,1.0,1.0,0.0,461.0,461.0,ASSIST EAGLE SIGN CREW IN REMOVING
01/29/2026,BRADYF_SO.CONTRACT_11056.2_21214_85722.09,1115.1,,PO#1394-1 WHITEY'S B,EA,0.0,1.0,1.0,0.0,222.0,222.0,Repairs to sign.
01/29/2026,BRADYF_SO.CONTRACT_11056.2_21214_85722.09,1115.1,,PO#1829-1 NAGLE SIGN,EA,0.0,1.0,1.0,0.0,220.0,220.0,Holmes Honda - 11206 Hickman - Des
01/29/2026,BRADYF_SO.CONTRACT_11056.2_21214_85722.09,1115.1,,PO#1829-3 NAGLE SIGN,EA,0.0,1.0,1.0,0.0,746.0,746.0,meet andy @ eagle signs with truck
01/29/2026,BRADYF_SO.CONTRACT_11056.2_21214_85722.09,1115.1,,PO#2005-1 CONCRETE S,EA,0.0,1.0,1.0,0.0,772.92,772.92,"warm water, and concrete"
01/29/2026,BRADYF_SO.CONTRACT_11056.2_21214_85722.09,1115.1,,PO#2247-1 CRANE RENT,EA,0.0,1.0,1.0,0.0,450.0,450.0,rented lorain mch350d hydrulic truc
01/29/2026,BRADYF_SO.CONTRACT_11056.2_21214_85722.09,1115.1,0200,ROD,EA,1.0,0.0,-1.0,600.0,0.0,-600.0,1-3/4 B7 Rod & Nuts
01/29/2026,BRADYF_SO.CONTRACT_11056.2_21214_85722.09,1115.1,0600,CONCRETE,EA,11.0,0.0,-11.0,1210.0,0.0,-1210.0,4000 pound
01/29/2026,BRADYF_SO.CONTRACT_11056.2_21214_85722.09,1115.1,0600,RENTAL,EA,4.0,0.0,-4.0,600.0,0.0,-600.0,backhoe&dumptruck
01/29/2026,BRADYF_SO.CONTRACT_11056.2_21214_85722.09,1115.2,,PO#2333-1 THE ELECTR,EA,0.0,1.0,1.0,0.0,3063.4,3063.4,labor & equipment to dig hole
01/29/2026,BRADYF_SO.CONTRACT_11056.2_21214_85722.09,11150.2,,PO#22146-1 BTI LOGIS,EA,0.0,1.0,1.0,0.0,3200.0,3200.0,"Shipping to Meridian, MS"
01/29/2026,BRADYF_SO.CONTRACT_11056.2_21214_85722.09,11151.1,,PO#22032-1 RODERICK,EA,0.0,1.0,1.0,0.0,250.0,250.0,"Receive, inspect, install 3.5"" ""R"""
01/29/2026,BRADYF_SO.CONTRACT_11056.2_21214_85722.09,11151.1,0200,SHIPPING,EA,1.0,0.0,-1.0,5.0,0.0,-5.0,estimated shipping of vinyl
01/29/2026,BRADYF_SO.CONTRACT_11056.2_21214_85722.09,11151.1,0600,INSTALLATION,EA,1.0,0.0,-1.0,250.0,0.0,-250.0,Roderick Sign Co. - quote
01/29/2026,BRADYF_SO.CONTRACT_11056.2_21214_85722.09,11153.1,,PO#22033-1 SIGN MART,EA,0.0,1.0,1.0,0.0,350.0,350.0,Warranty work: In the field; Remove
01/29/2026,BRADYF_SO.CONTRACT_11056.2_21214_85722.09,11155.1,0200,FREIGHT,EA,1.0,0.0,-1.0,25.0,0.0,-25.0,estimated Gemini shipping
01/29/2026,BRADYF_SO.CONTRACT_11056.2_21214_85722.09,11155.1,0200,NUMBERS,EA,8.0,0.0,-8.0,318.85,0.0,-318.85,"Gemini - 1"" thick acrylic, black, 6"
01/29/2026,BRADYF_SO.CONTRACT_11056.2_21214_85722.09,11158.1,,PO#22080-1 UNISHIPPE,EA,0.0,1.0,1.0,0.0,74.55,74.55,shipping for cat scale.
01/29/2026,BRADYF_SO.CONTRACT_11056.2_21214_85722.09,11158.2,,PO#22107-1 UNISHIPPE,EA,0.0,1.0,1.0,0.0,148.64,148.64,shipping for cat scale.
01/29/2026,BRADYF_SO.CONTRACT_11056.2_21214_85722.09,11160.1,,PO#22997-1 DIVISION,EA,0.0,1.0,1.0,0.0,3137.0,3137.0,PROVIDE FOOTING FOR SIGN. FOOTING T
01/29/2026,BRADYF_SO.CONTRACT_11056.2_21214_85722.09,11160.1,0600,FOOTINGS,EA,1.0,0.0,-1.0,3137.0,0.0,-3137.0,D3 - quote #2023004
01/29/2026,BRADYF_SO.CONTRACT_11056.2_21214_85722.09,11160.9,,20232112 DIVISION 3,0,0.0,0.0,0.0,0.0,0.0,1737.0,extra costs of excavation due to bo
01/29/2026,BRADYF_SO.CONTRACT_11056.2_21214_85722.09,11160.9,0600,EXTRA,EA,1.0,0.0,-1.0,1737.0,0.0,-1737.0,D3 - quote #2023212
01/29/2026,BRADYF_SO.CONTRACT_11056.2_21214_85722.09,11162.1,0200,BANNER,SF,32.0,0.0,-32.0,56.0,0.0,-56.0,Signs365.com - 15oz Single Sided ba
01/29/2026,BRADYF_SO.CONTRACT_11056.2_21214_85722.09,11162.1,0200,SHIPPING,EA,2.0,0.0,-2.0,20.0,0.0,-20.0,estimated Signs365 shipping
01/29/2026,BRADYF_SO.CONTRACT_11056.2_21214_85722.09,11166.1,,PO#22062-1 BTI LOGIS,EA,0.0,1.0,1.0,0.0,1500.0,1500.0,Shipping for non-intercom pole to A
01/29/2026,BRADYF_SO.CONTRACT_11056.2_21214_85722.09,11168.1,,PO#22073-1 NAGLE SIG,EA,0.0,1.0,1.0,0.0,137.5,137.5,Provide: 1 set of Letter & Logo Ret
01/29/2026,BRADYF_SO.CONTRACT_11056.2_21214_85722.09,11168.1,0600,TEMPLATE,EA,14.0,0.0,-14.0,35.7,0.0,-35.7,Mounting Pattern
01/29/2026,BRADYF_SO.CONTRACT_11056.2_21214_85722.09,11170.1,0200,GEMINI,EA,1.0,0.0,-1.0,158.19,0.0,-158.19,Gemini - quote #E802215
01/29/2026,BRADYF_SO.CONTRACT_11056.2_21214_85722.09,11171.1,,PO#22115-1 NAGLE SIG,EA,0.0,1.0,1.0,0.0,67.75,67.75,"(2) yards 48"" 3M 7725-15 bright yel"
01/29/2026,BRADYF_SO.CONTRACT_11056.2_21214_85722.09,11171.1,,PO#22326-2 LUMINOUS,EA,0.0,1.0,1.0,0.0,4277.68,4277.68,Install Blade sign- HARRY C'S
01/29/2026,BRADYF_SO.CONTRACT_11056.2_21214_85722.09,11171.1,0200,CLEAR,EA,14.0,0.0,-14.0,273.14,0.0,-273.14,"1"" acrylic10"
01/29/2026,BRADYF_SO.CONTRACT_11056.2_21214_85722.09,11171.1,0300,BLUE,EA,4.0,0.0,-4.0,114.0,0.0,-114.0,LED tetra
01/29/2026,BRADYF_SO.CONTRACT_11056.2_21214_85722.09,11171.1,0300,ENGINE,EA,15.0,0.0,-15.0,2655.0,0.0,-2655.0,white led
01/29/2026,BRADYF_SO.CONTRACT_11056.2_21214_85722.09,11171.1,0300,MIOSC,EA,1.0,0.0,-1.0,100.0,0.0,-100.0,caps
01/29/2026,BRADYF_SO.CONTRACT_11056.2_21214_85722.09,11171.1,0300,ORANGE,EA,4.0,0.0,-4.0,114.0,0.0,-114.0,LED tetra 8´
01/29/2026,BRADYF_SO.CONTRACT_11056.2_21214_85722.09,11171.1,0300,YELLOW,EA,7.0,0.0,-7.0,199.5,0.0,-199.5,LED tetra 8´
01/29/2026,BRADYF_SO.CONTRACT_11056.2_21214_85722.09,11171.1,0600,OVER,EA,3.0,0.0,-3.0,450.0,0.0,-450.0,night
01/29/2026,BRADYF_SO.CONTRACT_11056.2_21214_85722.09,11172.1,,PO#22326-1 LUMINOUS,EA,0.0,1.0,1.0,0.0,2000.0,2000.0,Install Blade Sign- Boomtown Cafe.
01/29/2026,BRADYF_SO.CONTRACT_11056.2_21214_85722.09,11172.1,0200,CLEAR,EA,40.0,0.0,-40.0,780.4,0.0,-780.4,"1"" acrylic121288"
01/29/2026,BRADYF_SO.CONTRACT_11056.2_21214_85722.09,11172.1,0300,ENGINE,EA,5.0,0.0,-5.0,718.0,0.0,-718.0,red light engine
01/29/2026,BRADYF_SO.CONTRACT_11056.2_21214_85722.09,11172.1,0300,LIGHT,FT,4.0,0.0,-4.0,708.0,0.0,-708.0,white light engine
01/29/2026,BRADYF_SO.CONTRACT_11056.2_21214_85722.09,11172.1,0300,MISC,EA,1.0,0.0,-1.0,50.0,0.0,-50.0,caps etc
01/29/2026,BRADYF_SO.CONTRACT_11056.2_21214_85722.09,11172.1,0300,RED,EA,6.0,0.0,-6.0,171.0,0.0,-171.0,tetra
01/29/2026,BRADYF_SO.CONTRACT_11056.2_21214_85722.09,11172.1,0600,OVER,EA,3.0,0.0,-3.0,450.0,0.0,-450.0,night
01/29/2026,BRADYF_SO.CONTRACT_11056.2_21214_85722.09,11172.2,,PO#22379-1 LUMINOUS,EA,0.0,1.0,1.0,0.0,1074.0,1074.0,Make modifications to steel structu
01/29/2026,BRADYF_SO.CONTRACT_11056.2_21214_85722.09,11172.2,0200,QUOTE,EA,1.0,0.0,-1.0,1074.0,0.0,-1074.0,Luminous Neon - Proposal #J17017
01/29/2026,BRADYF_SO.CONTRACT_11056.2_21214_85722.09,11178.1,0500,GRIMCO,SF,13.0,0.0,-13.0,13.0,0.0,-13.0,"30"" Britline Over laminate"
01/29/2026,BRADYF_SO.CONTRACT_11056.2_21214_85722.09,11178.1,0500,PREP,EA,1.0,0.0,-1.0,43.43,0.0,-43.43,LABOR - clean/prep vehicle
01/29/2026,BRADYF_SO.CONTRACT_11056_21214_79136.635,11059.1,0300,AMP,EA,1.0,0.0,-1.0,45.0,0.0,-45.0,For RGB
01/29/2026,BRADYF_SO.CONTRACT_11056_21214_79136.635,11059.1,0300,CONTROLLER,EA,1.0,0.0,-1.0,160.0,0.0,-160.0,Weather Proof for RGB
01/29/2026,BRADYF_SO.CONTRACT_11056_21214_79136.635,11059.1,0300,DRIVER,EA,2.0,0.0,-2.0,70.0,0.0,-70.0,For RGB
01/29/2026,BRADYF_SO.CONTRACT_11056_21214_79136.635,11059.1,0300,LED,EA,2.0,0.0,-2.0,678.0,0.0,-678.0,One bag 90 mods RBG
01/29/2026,BRADYF_SO.CONTRACT_11056_21214_79136.635,11059.1,0300,WIRE,EA,30.0,0.0,-30.0,15.0,0.0,-15.0,For RGB
01/29/2026,BRADYF_SO.CONTRACT_11056_21214_79190.729,11059.1,0300,AMP,EA,1.0,0.0,-1.0,45.0,0.0,-45.0,For RGB
01/29/2026,BRADYF_SO.CONTRACT_11056_21214_79190.729,11059.1,0300,CONTROLLER,EA,1.0,0.0,-1.0,160.0,0.0,-160.0,Weather Proof for RGB
01/29/2026,BRADYF_SO.CONTRACT_11056_21214_79190.729,11059.1,0300,DRIVER,EA,2.0,0.0,-2.0,70.0,0.0,-70.0,For RGB
01/29/2026,BRADYF_SO.CONTRACT_11056_21214_79190.729,11059.1,0300,LED,EA,2.0,0.0,-2.0,678.0,0.0,-678.0,One bag 90 mods RBG
01/29/2026,BRADYF_SO.CONTRACT_11056_21214_79190.729,11059.1,0300,WIRE,EA,30.0,0.0,-30.0,15.0,0.0,-15.0,For RGB
01/28/2026,BRADYF_SO.CONTRACT_11091.1_21213_51605.075,11091.1,,PO#21992-1 NAGLE SIG,EA,0.0,1.0,1.0,0.0,137.5,137.5,Provide 1 set of returns for Letter
01/28/2026,BRADYF_SO.CONTRACT_11091.1_21213_51605.075,11091.1,0500,OVERLAMINATE,SF,50.0,0.0,-50.0,45.0,0.0,-45.0,Overlaminate
01/28/2026,BRADYF_SO.CONTRACT_11091.1_21213_51721.127,11091.1,,PO#21992-1 NAGLE SIG,EA,0.0,1.0,1.0,0.0,137.5,137.5,Provide 1 set of returns for Letter
01/28/2026,BRADYF_SO.CONTRACT_11091.1_21213_51721.127,11091.1,0500,OVERLAMINATE,SF,50.0,0.0,-50.0,45.0,0.0,-45.0,Overlaminate
02/15/2026,BRADYF_SO.CONTRACT_1115.1_21231_49916.637,1115.1,,PO#1311-2 NAGLE SIGN,EA,0.0,1.0,1.0,0.0,461.0,461.0,ASSIST EAGLE SIGN CREW IN REMOVING
02/15/2026,BRADYF_SO.CONTRACT_1115.1_21231_49916.637,1115.1,,PO#1394-1 WHITEY'S B,EA,0.0,1.0,1.0,0.0,222.0,222.0,Repairs to sign.
02/15/2026,BRADYF_SO.CONTRACT_1115.1_21231_49916.637,1115.1,,PO#1829-1 NAGLE SIGN,EA,0.0,1.0,1.0,0.0,220.0,220.0,Holmes Honda - 11206 Hickman - Des
02/15/2026,BRADYF_SO.CONTRACT_1115.1_21231_49916.637,1115.1,,PO#1829-3 NAGLE SIGN,EA,0.0,1.0,1.0,0.0,746.0,746.0,meet andy @ eagle signs with truck
02/15/2026,BRADYF_SO.CONTRACT_1115.1_21231_49916.637,1115.1,,PO#2005-1 CONCRETE S,EA,0.0,1.0,1.0,0.0,772.92,772.92,"warm water, and concrete"
02/15/2026,BRADYF_SO.CONTRACT_1115.1_21231_49916.637,1115.1,,PO#2247-1 CRANE RENT,EA,0.0,1.0,1.0,0.0,450.0,450.0,rented lorain mch350d hydrulic truc
02/15/2026,BRADYF_SO.CONTRACT_1115.1_21231_49916.637,1115.1,0200,ROD,EA,1.0,0.0,-1.0,600.0,0.0,-600.0,1-3/4 B7 Rod & Nuts
02/15/2026,BRADYF_SO.CONTRACT_1115.1_21231_49916.637,1115.1,0600,CONCRETE,EA,11.0,0.0,-11.0,1210.0,0.0,-1210.0,4000 pound
02/15/2026,BRADYF_SO.CONTRACT_1115.1_21231_49916.637,1115.1,0600,RENTAL,EA,4.0,0.0,-4.0,600.0,0.0,-600.0,backhoe&dumptruck
02/15/2026,BRADYF_SO.CONTRACT_1115.1_21231_49916.637,1115.2,,PO#2333-1 THE ELECTR,EA,0.0,1.0,1.0,0.0,3063.4,3063.4,labor & equipment to dig hole
02/15/2026,BRADYF_SO.CONTRACT_1115.1_21231_49916.637,1123.1,,PO#1298-1 LAKEVILLE,EA,0.0,1.0,1.0,0.0,99.04,99.04,freight out
02/15/2026,BRADYF_SO.CONTRACT_1115.1_21231_49916.637,1126.1,,PO#1231-1 TIME-O-MAT,EA,0.0,1.0,1.0,0.0,4207.0,4207.0,Purchase (1) Time-O-Matic reader bo
02/15/2026,BRADYF_SO.CONTRACT_1115.1_21231_49916.637,1126.1,0300,HARDWARE,EA,1.0,0.0,-1.0,4293.0,0.0,-4293.0,Buy digatal reader board from Watch
02/15/2026,BRADYF_SO.CONTRACT_1115.1_21231_49916.637,1137.1,,PO#1370-1 NAGLE SIGN,EA,0.0,1.0,1.0,0.0,160.66,160.66,Hire Nagle Signs to route (2) sets
02/15/2026,BRADYF_SO.CONTRACT_1115.1_21231_49916.637,1137.1,,PO#1370-2 NAGLE SIGN,EA,0.0,1.0,1.0,0.0,160.66,160.66,Hire Nagle Signs to route (2) sets
02/15/2026,BRADYF_SO.CONTRACT_1115.1_21231_49916.637,1137.1,,PO#1370-3 NAGLE SIGN,EA,0.0,1.0,1.0,0.0,266.5,266.5,Hire Nagle Signs to fabricate (2) 1
02/15/2026,BRADYF_SO.CONTRACT_1115.1_21231_49916.637,1137.1,0300,LEDS,EA,2.0,0.0,-2.0,6856.0,0.0,-6856.0,modules
02/15/2026,BRADYF_SO.CONTRACT_1115.1_21231_49916.637,1137.1,0600,HARDWARE,EA,2.0,0.0,-2.0,100.0,0.0,-100.0,mounting
02/15/2026,BRADYF_SO.CONTRACT_1115.1_21231_49916.637,1137.2,,PO#1370-4 NAGLE SIGN,EA,0.0,1.0,1.0,0.0,160.68,160.68,"Hire Nagle Signs to route (2) 72"" G"
02/15/2026,BRADYF_SO.CONTRACT_1115.1_21231_49916.637,1137.2,0600,HARDWARE,EA,2.0,0.0,-2.0,50.0,0.0,-50.0,mounting
02/15/2026,BRADYF_SO.CONTRACT_1115.1_21231_49916.637,1137.3,,PO#1312-1 NAGLE SIGN,EA,0.0,1.0,1.0,0.0,670.0,670.0,REMOVE EXISTING SIGNS AND INSTALL (
02/15/2026,BRADYF_SO.CONTRACT_1115.1_21231_49916.637,1137.4,0099,PERMIT,EA,1.0,0.0,-1.0,42.0,0.0,-42.0,secure
02/15/2026,BRADYF_SO.CONTRACT_1115.1_21231_49916.637,1138.1,0099,PERMIT,EA,1.0,0.0,-1.0,42.0,0.0,-42.0,secure
02/15/2026,BRADYF_SO.CONTRACT_1115.1_21231_49916.637,1138.2,,PO#1367-6 NAGLE SIGN,EA,0.0,1.0,1.0,0.0,57.33,57.33,Hire Nagle Signs to route (1) set 6
02/15/2026,BRADYF_SO.CONTRACT_1115.1_21231_49916.637,1138.2,,PO#1367-7 NAGLE SIGN,EA,0.0,1.0,1.0,0.0,57.33,57.33,Hire Nagle Signs to route (1) set 6
02/15/2026,BRADYF_SO.CONTRACT_1115.1_21231_49916.637,1138.2,,PO#1367-8 NAGLE SIGN,EA,0.0,1.0,1.0,0.0,0.0,0.0,Hire Nagle Signs to fabricate (1) 1
02/15/2026,BRADYF_SO.CONTRACT_1115.1_21231_49916.637,1138.2,0600,HARDWARE,EA,1.0,0.0,-1.0,50.0,0.0,-50.0,mounting
02/15/2026,BRADYF_SO.CONTRACT_1115.1_21231_49916.637,1138.3,,PO#1367-4 NAGLE SIGN,EA,0.0,1.0,1.0,0.0,57.34,57.34,"Hire Nagle Signs to route (1) 60"" G"
02/15/2026,BRADYF_SO.CONTRACT_1115.1_21231_49916.637,1138.3,0600,HARDWARE,EA,1.0,0.0,-1.0,50.0,0.0,-50.0,mounting
02/15/2026,BRADYF_SO.CONTRACT_1115.1_21231_49916.637,1138.4,,PO#1367-5 NAGLE SIGN,EA,0.0,1.0,1.0,0.0,57.34,57.34,"Hire Nagle Signs to route (1) 84"" G"
02/15/2026,BRADYF_SO.CONTRACT_1115.1_21231_49916.637,1138.4,0600,HARDWARE,EA,1.0,0.0,-1.0,50.0,0.0,-50.0,mounting
02/15/2026,BRADYF_SO.CONTRACT_1115.1_21231_49916.637,1138.5,,PO#1367-1 NAGLE SIGN,EA,0.0,1.0,1.0,0.0,57.33,57.33,Hire Nagle Signs to route (1) set 4
02/15/2026,BRADYF_SO.CONTRACT_1115.1_21231_49916.637,1138.5,,PO#1367-2 NAGLE SIGN,EA,0.0,1.0,1.0,0.0,57.33,57.33,Hire Nagle Signs to route (1) set 4
02/15/2026,BRADYF_SO.CONTRACT_1115.1_21231_49916.637,1138.5,,PO#1367-3 NAGLE SIGN,EA,0.0,1.0,1.0,0.0,0.0,0.0,Hire Nagle Signs to fabricate (1) 1
02/15/2026,BRADYF_SO.CONTRACT_1115.1_21231_49916.637,1138.5,0600,HARDWARE,EA,1.0,0.0,-1.0,50.0,0.0,-50.0,mounting
02/15/2026,BRADYF_SO.CONTRACT_1115.1_21231_49916.637,1138.6,,PO#1507-1 LEMBERG EL,EA,0.0,1.0,1.0,0.0,972.48,972.48,MAKE FINAL CONNECTION OF SIGNS TO P
02/15/2026,BRADYF_SO.CONTRACT_1115.1_21231_49916.637,1138.6,,PO#1593-1 NAGLE SIGN,EA,0.0,1.0,1.0,0.0,5633.65,5633.65,"install customers 42"" raceway lette"
01/30/2025,BRADYF_SO.CONTRACT_11171_20850_37924.656,11171.1,,PO#22115-1 NAGLE SIG,EA,0.0,1.0,1.0,0.0,67.75,67.75,"(2) yards 48"" 3M 7725-15 bright yel"
01/30/2025,BRADYF_SO.CONTRACT_11171_20850_37924.656,11171.1,,PO#22326-2 LUMINOUS,EA,0.0,1.0,1.0,0.0,4277.68,4277.68,Install Blade sign- HARRY C'S
01/30/2025,BRADYF_SO.CONTRACT_11171_20850_37924.656,11171.1,0200,CLEAR,EA,14.0,0.0,-14.0,273.14,0.0,-273.14,"1"" acrylic10"
01/30/2025,BRADYF_SO.CONTRACT_11171_20850_37924.656,11171.1,0300,BLUE,EA,4.0,0.0,-4.0,114.0,0.0,-114.0,LED tetra
01/30/2025,BRADYF_SO.CONTRACT_11171_20850_37924.656,11171.1,0300,ENGINE,EA,15.0,0.0,-15.0,2655.0,0.0,-2655.0,white led
01/30/2025,BRADYF_SO.CONTRACT_11171_20850_37924.656,11171.1,0300,MIOSC,EA,1.0,0.0,-1.0,100.0,0.0,-100.0,caps
01/30/2025,BRADYF_SO.CONTRACT_11171_20850_37924.656,11171.1,0300,ORANGE,EA,4.0,0.0,-4.0,114.0,0.0,-114.0,LED tetra 8´
01/30/2025,BRADYF_SO.CONTRACT_11171_20850_37924.656,11171.1,0300,YELLOW,EA,7.0,0.0,-7.0,199.5,0.0,-199.5,LED tetra 8´
01/30/2025,BRADYF_SO.CONTRACT_11171_20850_37924.656,11171.1,0600,OVER,EA,3.0,0.0,-3.0,450.0,0.0,-450.0,night
01/29/2026,BRADYF_SO.CONTRACT_11179.1_21214_85736.725,11179.1,0600,CABLE,EA,1.0,0.0,-1.0,230.0,0.0,-230.0,McMaster - 3450T28 Galvanized Steel
01/29/2026,BRADYF_SO.CONTRACT_11179.1_21214_85736.725,11179.1,0600,SHACKLE,EA,8.0,0.0,-8.0,232.8,0.0,-232.8,McMaster - SHACKLE SPA FGD 3/8
01/29/2026,BRADYF_SO.CONTRACT_11179.1_21214_85736.725,11180.1,,PO#22093-1 PIROS SIG,EA,0.0,1.0,1.0,0.0,425.0,425.0,Provide Service for a 5x20 overhead
01/29/2026,BRADYF_SO.CONTRACT_11179.1_21214_85736.725,11182.1,0300,LED,EA,1.0,0.0,-1.0,3960.76,0.0,-3960.76,Grimco - email quote (2/24/23)
01/29/2026,BRADYF_SO.CONTRACT_11179.1_21214_85736.725,11184.1,0500,GRIMCO,EA,14.0,0.0,-14.0,12.74,0.0,-12.74,"30"" Britline Over laminate"
01/29/2026,BRADYF_SO.CONTRACT_11179.1_21214_85736.725,11184.1,0500,PREP,EA,1.0,0.0,-1.0,42.46,0.0,-42.46,LABOR - clean/prep vehicle
01/29/2026,BRADYF_SO.CONTRACT_11179.1_21214_85736.725,11185.4,0200,FACES,EA,1.0,0.0,-1.0,9300.0,0.0,-9300.0,World Wide - quote #222423
01/29/2026,BRADYF_SO.CONTRACT_11179.1_21214_85736.725,11185.4,0200,SHIPPING,EA,1.0,0.0,-1.0,550.0,0.0,-550.0,estimated World Wide shipping
01/29/2026,BRADYF_SO.CONTRACT_11179.1_21214_85736.725,11185.5,0200,FACES,EA,1.0,0.0,-1.0,10770.0,0.0,-10770.0,World Wide - quote #222423
01/29/2026,BRADYF_SO.CONTRACT_11179.1_21214_85736.725,11185.5,0200,SHIPPING,EA,1.0,0.0,-1.0,550.0,0.0,-550.0,estimated World Wide shipping
01/29/2026,BRADYF_SO.CONTRACT_11179.1_21214_85736.725,11187.1,0500,OVERLAMINATE,SF,8.0,0.0,-8.0,10.0,0.0,-10.0,Overlaminate
01/29/2026,BRADYF_SO.CONTRACT_11179.1_21214_85736.725,11187.2,0200,GEMINI,EA,1.0,0.0,-1.0,1506.33,0.0,-1506.33,Gemini - quote #6360195
01/29/2026,BRADYF_SO.CONTRACT_11179.1_21214_85736.725,11188.1,,PO#22127-1 BTI LOGIS,EA,0.0,1.0,1.0,0.0,975.0,975.0,shipping for cat scale to la crosse
01/29/2026,BRADYF_SO.CONTRACT_11179.1_21214_85736.725,11190.4,0200,GEMINI,EA,1.0,0.0,-1.0,420.3,0.0,-420.3,Gemini - quote #E866210
01/29/2026,BRADYF_SO.CONTRACT_11179.1_21214_85736.725,11190.4,0200,SHIPPING,EA,1.0,0.0,-1.0,49.99,0.0,-49.99,Gemini - quote #E866210
01/29/2026,BRADYF_SO.CONTRACT_11179.1_21214_85736.725,11192.1,,PO#22301-1 BTI SPECI,EA,0.0,1.0,1.0,0.0,3200.0,3200.0,"5pk Shipping to Meridian, MS"
01/29/2026,BRADYF_SO.CONTRACT_11179.1_21214_85736.725,11194.3,,PO#22178-1 NAGLE SIG,EA,0.0,1.0,1.0,0.0,63.47,63.47,Provide:(x1) opaque digital print f
01/29/2026,BRADYF_SO.CONTRACT_11179.1_21214_85736.725,11194.3,0200,FREIGHT,EA,1.0,0.0,-1.0,150.0,0.0,-150.0,Gemini - quote #6401437 (1/3)
01/29/2026,BRADYF_SO.CONTRACT_11179.1_21214_85736.725,11194.3,0200,GEMINI,EA,1.0,0.0,-1.0,1604.02,0.0,-1604.02,"Gemini - quote #6401437 (items 2,3,"
01/29/2026,BRADYF_SO.CONTRACT_11179.1_21214_85736.725,11194.4,0200,GEMINI,EA,1.0,0.0,-1.0,799.68,0.0,-799.68,"Gemini - quote #6401437 (items 10,1"
01/29/2026,BRADYF_SO.CONTRACT_11179.1_21214_85736.725,11195.1,0500,OVERLAMINATE,SF,8.0,0.0,-8.0,10.0,0.0,-10.0,Overlaminate
01/29/2026,BRADYF_SO.CONTRACT_11179.1_21214_85736.725,11196.1,0300,LEDS,EA,7.0,0.0,-7.0,413.84,0.0,-413.84,Grimco - HanleyLED PhoenixNRG Bar S
01/29/2026,BRADYF_SO.CONTRACT_11179.1_21214_85736.725,11196.1,0600,DISPOSAL,EA,11.0,0.0,-11.0,11.0,0.0,-11.0,Lamp disposal
01/29/2026,BRADYF_SO.CONTRACT_11179.1_21214_85736.725,11197.1,0500,OVERLAMINATE,SF,9.0,0.0,-9.0,13.5,0.0,-13.5,Overlaminate
01/29/2026,BRADYF_SO.CONTRACT_11179.1_21214_85736.725,11197.3,0200,FREIGHT,EA,1.0,0.0,-1.0,68.99,0.0,-68.99,Gemini - quote #E829262
01/29/2026,BRADYF_SO.CONTRACT_11179.1_21214_85736.725,11197.3,0200,GEMINI,EA,1.0,0.0,-1.0,560.4,0.0,-560.4,Gemini - quote #E829262
01/29/2026,BRADYF_SO.CONTRACT_11179.1_21214_85736.725,11201.2,,PO#22194-1 NAGLE SIG,EA,0.0,1.0,1.0,0.0,137.5,137.5,1 set of returns for HOGA
01/29/2026,BRADYF_SO.CONTRACT_11179.1_21214_85736.725,11202.1,,PO#22241-1 NAGLE SIG,EA,0.0,2.0,2.0,0.0,123.75,123.75,Bend returns for 2 single face cabi
01/29/2026,BRADYF_SO.CONTRACT_11179.1_21214_85736.725,11202.1,0300,CONTROLLER,EA,1.0,0.0,-1.0,61.57,0.0,-61.57,Grimco - HanleyLED RGB Controller S
01/29/2026,BRADYF_SO.CONTRACT_11179.1_21214_85736.725,11202.1,0300,RGB,EA,20.0,0.0,-20.0,85.07,0.0,-85.07,Grimco - HanleyLED Peregrine Series
01/29/2026,BRADYF_SO.CONTRACT_11179.1_21214_85736.725,11206.6,,PO#22494-1 CONTRACTO,EA,0.0,1.0,1.0,0.0,780.06,780.06,PROVIDE 85' JLG LIFT TO SITE FOR SI
01/29/2026,BRADYF_SO.CONTRACT_11179.1_21214_85736.725,11206.6,,PO#22548-1 CONTRACTO,EA,0.0,1.0,1.0,0.0,331.54,331.54,PROVIDE E 400 LIFT TO JOBSITE
01/29/2026,BRADYF_SO.CONTRACT_11179.1_21214_85736.725,11206.6,0600,DELIVERY,EA,2.0,0.0,-2.0,250.0,0.0,-250.0,Duke Aerial - delivery/pickup
01/29/2026,BRADYF_SO.CONTRACT_11179.1_21214_85736.725,11206.6,0600,LIFT,EA,1.0,0.0,-1.0,1105.0,0.0,-1105.0,Duke Aerial - 86´ JLG
01/29/2026,BRADYF_SO.CONTRACT_11179.1_21214_85736.725,11206.6,0600,TRAILER,EA,1.0,0.0,-1.0,100.0,0.0,-100.0,Trailer rental for Scissor Lift
01/29/2026,BRADYF_SO.CONTRACT_11179.1_21214_85736.725,11207.6,0200,LETTERS,EA,1.0,0.0,-1.0,1373.71,0.0,-1373.71,Gemini - quote #E839896
01/29/2026,BRADYF_SO.CONTRACT_11179.1_21214_85736.725,11207.7,0200,LETTERS,EA,1.0,0.0,-1.0,605.39,0.0,-605.39,Gemini - quote #E839954
01/29/2026,BRADYF_SO.CONTRACT_11179.1_21214_85736.725,11207.8,0200,NUMBERS,EA,1.0,0.0,-1.0,373.57,0.0,-373.57,Gemini - quote #E839975
01/29/2026,BRADYF_SO.CONTRACT_11179.1_21214_85736.725,11207.9,0200,LETTERS,EA,1.0,0.0,-1.0,777.29,0.0,-777.29,Gemini - quote #E840005
01/29/2026,BRADYF_SO.CONTRACT_11179.1_21214_85736.725,11208.1,,PO#22209-1 BTI LOGIS,EA,0.0,1.0,1.0,0.0,1375.0,1375.0,Shipping Cat Scale Package
01/29/2026,BRADYF_SO.CONTRACT_11179.1_21214_85736.725,11210.1,0200,SHIPPING,EA,1.0,0.0,-1.0,10.0,0.0,-10.0,"estimated shipping to Webster City,"
01/29/2026,BRADYF_SO.CONTRACT_11179.1_21214_85736.725,11210.1,0500,OVERLAMINATE,SF,9.0,0.0,-9.0,13.5,0.0,-13.5,Overlaminate
01/29/2026,BRADYF_SO.CONTRACT_11179.1_21214_85736.725,11210.2,0200,SHIPPING,EA,1.0,0.0,-1.0,10.0,0.0,-10.0,"estimated shipping to Webster City,"
01/29/2026,BRADYF_SO.CONTRACT_11179.1_21214_85736.725,11210.2,0500,OVERLAMINATE,SF,20.0,0.0,-20.0,18.0,0.0,-18.0,Overlaminate
01/29/2026,BRADYF_SO.CONTRACT_11179.1_21214_85736.725,11212.1,0500,OVERLAMINATE,SF,14.0,0.0,-14.0,21.0,0.0,-21.0,Overlaminate
01/29/2026,BRADYF_SO.CONTRACT_11179.1_21214_85736.725,11212.2,0500,OVERLAMINATE,SF,14.0,0.0,-14.0,21.0,0.0,-21.0,Overlaminate
01/29/2026,BRADYF_SO.CONTRACT_11179.1_21214_85736.725,11214.2,0500,OVERLAMINATE,SF,18.0,0.0,-18.0,27.0,0.0,-27.0,Overlaminate
01/29/2026,BRADYF_SO.CONTRACT_11179.1_21214_85736.725,11216.1,,PO#22326-3 LUMINOUS,EA,0.0,1.0,1.0,0.0,500.0,500.0,iNSTALL REPLACEMENT PANFORMED FACES
01/29/2026,BRADYF_SO.CONTRACT_11179.1_21214_85736.725,11216.1,0200,FACES,EA,2.0,0.0,-2.0,1163.8,0.0,-1163.8,Commercial Plastics - quote
01/29/2026,BRADYF_SO.CONTRACT_11179.1_21214_85736.725,11216.1,0200,SHIPPING,EA,1.0,0.0,-1.0,218.4,0.0,-218.4,Commercial Plastics - quote
01/29/2026,BRADYF_SO.CONTRACT_11179.1_21214_85736.725,11216.1,0500,OVERLAMINATE,SF,85.0,0.0,-85.0,127.5,0.0,-127.5,Overlaminate
01/29/2026,BRADYF_SO.CONTRACT_11179.1_21214_85736.725,11218.1,,PO#22467-1 CONTRACTO,EA,0.0,1.0,1.0,0.0,90.95,90.95,PROVIDE RENTAL TILT BED TRAILER
01/29/2026,BRADYF_SO.CONTRACT_11179.1_21214_85736.725,11219.1,,PO#22356-1 BTI LOGIS,EA,0.0,1.0,1.0,0.0,1950.0,1950.0,"Shipping to Nashville, TN"
01/29/2026,BRADYF_SO.CONTRACT_11179.1_21214_85736.725,11226.1,0200,SHIPPING,EA,1.0,0.0,-1.0,20.0,0.0,-20.0,UPS Ground
01/29/2026,BRADYF_SO.CONTRACT_11179.1_21214_85736.725,11226.1,0300,E980301,EA,1.0,0.0,-1.0,609.0,0.0,-609.0,watchfire - host nano radio kit
01/29/2026,BRADYF_SO.CONTRACT_11179.1_21214_85736.725,11226.1,0300,E980303,EA,1.0,0.0,-1.0,593.0,0.0,-593.0,Kit Service Nano M2 SRWF M86
01/29/2026,BRADYF_SO.CONTRACT_11179.1_21214_85736.725,11226.2,0200,SHIPPING,EA,1.0,0.0,-1.0,20.0,0.0,-20.0,UPS Ground
01/29/2026,BRADYF_SO.CONTRACT_11179.1_21214_85736.725,11226.2,0300,3912015,EA,1.0,0.0,-1.0,525.0,0.0,-525.0,Module-RGB 3to1 x19jv2 (B)
01/29/2026,BRADYF_SO.CONTRACT_11179.1_21214_85736.725,11226.2,0300,52812,EA,1.0,0.0,-1.0,347.0,0.0,-347.0,DinRailAsy/2SurgeSprsr/5Brkr/8grd_O
01/29/2026,BRADYF_SO.CONTRACT_11179.1_21214_85736.725,11226.2,0300,E510005,EA,1.0,0.0,-1.0,292.0,0.0,-292.0,Power Supply 126W 4.2V LW4 ORANGE (
01/29/2026,BRADYF_SO.CONTRACT_11179.1_21214_85736.725,1123.1,,PO#1298-1 LAKEVILLE,EA,0.0,1.0,1.0,0.0,99.04,99.04,freight out
01/29/2026,BRADYF_SO.CONTRACT_11179.1_21214_85736.725,11230.1,,PO#22247-1 BTI LOGIS,EA,0.0,1.0,1.0,0.0,800.0,800.0,Shipping 4 Pallets (80) 5x20 Conver
01/29/2026,BRADYF_SO.CONTRACT_11179.1_21214_85736.725,11230.1,,PO#22273-1 BTI SPECI,EA,0.0,1.0,1.0,0.0,900.0,900.0,Shipping to Walcott (120 kits)
01/29/2026,BRADYF_SO.CONTRACT_11179.1_21214_85736.725,11231.1,0200,ACM,EA,25.0,0.0,-25.0,78.75,0.0,-78.75,"NGlantz - 6MM 60"" X 120"" WHITE 2 SI"
